; generated by PrusaSlicer 2.3.3+win64 on 2022-01-30 at 19:02:13 UTC

; 

; external perimeters extrusion width = 0.45mm
; perimeters extrusion width = 0.45mm
; infill extrusion width = 0.45mm
; solid infill extrusion width = 0.45mm
; top infill extrusion width = 0.40mm
; support material extrusion width = 0.35mm
; first layer extrusion width = 0.42mm

M73 P0 R342
M73 Q0 S347
M201 X1000 Y1000 Z200 E5000 ; sets maximum accelerations, mm/sec^2
M203 X200 Y200 Z12 E120 ; sets maximum feedrates, mm/sec
M204 P1250 R1250 T1250 ; sets acceleration (P, T) and retract acceleration (R), mm/sec^2
M205 X8.00 Y8.00 Z0.40 E4.50 ; sets the jerk limits, mm/sec
M205 S0 T0 ; sets the minimum extruding and travel feed rate, mm/sec
M107
;TYPE:Custom
M862.3 P "MK3S" ; printer model check
M862.1 P0.4 ; nozzle diameter check
M115 U3.10.0 ; tell printer latest fw version
G90 ; use absolute coordinates
M83 ; extruder relative mode
M104 S215 ; set extruder temp
M140 S60 ; set bed temp
M190 S60 ; wait for bed temp
M109 S215 ; wait for extruder temp
G28 W ; home all without mesh bed level
G80 ; mesh bed leveling
G1 Y-3.0 F1000.0 ; go outside print area
G92 E0.0
G1 X60.0 E9.0 F1000.0 ; intro line
G1 X100.0 E12.5 F1000.0 ; intro line
G92 E0.0
M221 S95

; Don't change E values below. Excessive value can damage the printer.
M907 E430 ; set extruder motor current
G21 ; set units to millimeters
G90 ; use absolute coordinates
M83 ; use relative distances for extrusion
M900 K0.05 ; Filament gcode LA 1.5
M900 K30 ; Filament gcode LA 1.0
;LAYER_CHANGE
;Z:0.2
;HEIGHT:0.2
;BEFORE_LAYER_CHANGE
G92 E0.0
;0.2


G1 E-0.80000 F2100.000
G1 Z0.400 F10800.000
;AFTER_LAYER_CHANGE
;0.2
G1 X53.282 Y72.441
G1 Z0.200
G1 E0.80000 F2100.000
M204 S1000
;TYPE:Skirt
;WIDTH:0.42
G1 F1200.000
G1 X53.804 Y72.088 E0.01977
G1 X54.319 Y71.902 E0.01716
G1 X54.858 Y71.839 E0.01704
G1 X195.137 Y71.839 E4.39833
G1 X195.979 Y71.993 E0.02684
G1 X196.715 Y72.438 E0.02696
G1 X197.244 Y73.116 E0.02696
G1 X197.497 Y73.937 E0.02696
G1 X197.510 Y92.056 E0.56810
G1 X192.357 Y139.311 E1.49042
G1 X192.212 Y139.870 E0.01811
G1 X191.935 Y140.381 E0.01823
G1 X191.542 Y140.809 E0.01823
G1 X191.057 Y141.129 E0.01823
G1 X190.245 Y141.364 E0.02649
G1 X150.751 Y145.282 E1.24439
G1 X99.340 Y145.284 E1.61197
G1 X59.705 Y141.359 E1.24881
G1 X59.137 Y141.215 E0.01835
G1 X58.622 Y140.937 E0.01835
G1 X58.191 Y140.542 E0.01835
G1 X57.871 Y140.057 E0.01823
G1 X57.643 Y139.310 E0.02449
G1 X52.490 Y99.011 E1.27382
G1 X52.489 Y74.102 E0.78102
G1 X52.601 Y73.485 E0.01965
G1 X52.873 Y72.916 E0.01977
G1 X53.243 Y72.487 E0.01777
;WIPE_START
G1 F8640.000
G1 X53.804 Y72.088 E-0.15898
G1 X54.319 Y71.902 E-0.12637
G1 X54.858 Y71.839 E-0.12550
G1 X56.370 Y71.839 E-0.34916
;WIPE_END
G1 E-0.04000 F2100.000
G1 Z0.600 F10800.000
G1 X76.371 Y71.650
G1 Z0.200
G1 E0.80000 F2100.000
G1 F1200.000
G1 X76.257 Y71.419 E0.00809
G1 X75.274 Y70.374 E0.04497
G1 X74.024 Y69.642 E0.04541
G1 X72.664 Y69.314 E0.04388
G1 X54.379 Y69.314 E0.57331
G1 X52.400 Y69.942 E0.06509
G1 X51.718 Y70.450 E0.02667
G1 X50.733 Y71.531 E0.04585
G1 X50.276 Y72.449 E0.03218
G1 X49.961 Y73.761 E0.04231
G1 X49.961 Y99.382 E0.80333
G1 X50.394 Y100.924 E0.05020
G1 X51.060 Y101.924 E0.03765
G1 X51.999 Y102.784 E0.03994
G1 X52.837 Y103.208 E0.02944
G1 X53.240 Y103.383 F10800.000
G1 F1200.000
G1 X54.131 Y103.570 E0.02855
G1 X55.287 Y103.581 E0.03624
G1 X55.287 Y119.392 E0.49576
;WIPE_START
G1 F8640.000
G1 X55.287 Y116.101 E-0.76000
;WIPE_END
G1 E-0.04000 F2100.000
G1 Z0.600 F10800.000
M73 Q0 S346
G1 X55.287 Y122.365
G1 Z0.200
G1 E0.80000 F2100.000
G1 F1200.000
G1 X55.287 Y139.537 E0.53842
G1 X55.847 Y141.308 E0.05824
G1 X56.426 Y142.095 E0.03064
G1 X57.451 Y143.006 E0.04300
G1 X58.267 Y143.415 E0.02863
G1 X59.490 Y143.713 E0.03947
G1 X81.568 Y143.713 E0.69223
;WIPE_START
G1 F8640.000
G1 X78.277 Y143.713 E-0.76000
;WIPE_END
G1 E-0.04000 F2100.000
G1 Z0.600 F10800.000
G1 X85.394 Y143.713
G1 Z0.200
G1 E0.80000 F2100.000
G1 F1200.000
G1 X94.483 Y143.713 E0.28497
G1 X94.794 Y144.644 E0.03077
G1 X94.929 Y145.037 F10800.000
G1 F1200.000
G1 X95.515 Y145.915 E0.03310
G1 X96.289 Y146.671 E0.03393
G1 X97.594 Y147.387 E0.04667
G1 X98.539 Y147.600 E0.03039
G1 X99.503 Y147.612 E0.03024
G1 X99.766 Y147.640 E0.00827
G1 X108.755 Y147.640 E0.28186
G1 X109.011 Y147.612 E0.00806
G1 X109.852 Y147.614 E0.02636
G1 X110.589 Y147.497 E0.02341
G1 X111.996 Y146.841 E0.04868
G1 X113.154 Y145.736 E0.05018
G1 X113.297 Y145.472 E0.00943
G1 X113.501 Y145.095 F10800.000
G1 F1200.000
G1 X113.825 Y144.496 E0.02135
G1 X114.008 Y143.713 E0.02520
G1 X135.992 Y143.713 E0.68929
G1 X136.175 Y144.496 E0.02520
G1 X136.498 Y145.094 E0.02131
G1 X136.702 Y145.471 F10800.000
G1 F1200.000
G1 X136.846 Y145.736 E0.00947
G1 X138.004 Y146.841 E0.05018
G1 X139.411 Y147.497 E0.04868
G1 X140.148 Y147.614 E0.02341
G1 X140.989 Y147.612 E0.02636
G1 X141.245 Y147.640 E0.00806
G1 X150.234 Y147.640 E0.28186
G1 X150.497 Y147.612 E0.00827
G1 X151.461 Y147.600 E0.03024
G1 X152.406 Y147.387 E0.03039
G1 X153.711 Y146.671 E0.04667
G1 X154.485 Y145.915 E0.03393
G1 X155.067 Y145.043 E0.03286
G1 X155.204 Y144.650 F10800.000
G1 F1200.000
G1 X155.517 Y143.713 E0.03097
G1 X164.651 Y143.713 E0.28639
;WIPE_START
G1 F8640.000
G1 X161.360 Y143.713 E-0.76000
;WIPE_END
G1 E-0.04000 F2100.000
G1 Z0.600 F10800.000
G1 X168.472 Y143.713
G1 Z0.200
G1 E0.80000 F2100.000
G1 F1200.000
G1 X190.537 Y143.713 E0.69186
G1 X192.308 Y143.153 E0.05824
G1 X193.095 Y142.574 E0.03064
G1 X194.006 Y141.549 E0.04300
G1 X194.415 Y140.733 E0.02863
G1 X194.713 Y139.510 E0.03947
G1 X194.713 Y119.437 E0.62935
;WIPE_START
G1 F8640.000
G1 X194.713 Y122.729 E-0.76000
;WIPE_END
G1 E-0.04000 F2100.000
G1 Z0.600 F10800.000
G1 X194.713 Y115.959
G1 Z0.200
G1 E0.80000 F2100.000
G1 F1200.000
G1 X194.713 Y96.627 E0.60613
G1 X195.872 Y96.616 E0.03632
G1 X196.845 Y96.409 E0.03121
G1 X197.247 Y96.209 F10800.000
G1 F1200.000
G1 X198.080 Y95.773 E0.02949
G1 X199.185 Y94.670 E0.04897
G1 X199.774 Y93.571 E0.03909
G1 X200.039 Y92.355 E0.03901
G1 X200.002 Y73.486 E0.59165
G1 X199.601 Y72.148 E0.04379
G1 X198.953 Y71.119 E0.03814
G1 X198.326 Y70.476 E0.02815
G1 X197.451 Y69.871 E0.03335
G1 X195.697 Y69.324 E0.05761
G1 X177.336 Y69.314 E0.57568
G1 X175.976 Y69.643 E0.04389
G1 X174.710 Y70.388 E0.04605
G1 X173.883 Y71.229 E0.03698
G1 X173.634 Y71.650 E0.01535
G1 X173.411 Y72.027 F10800.000
G1 F1200.000
G1 X173.287 Y72.239 E0.00769
G1 X172.924 Y73.506 E0.04133
G1 X172.905 Y76.267 E0.08658
G1 X171.410 Y76.267 E0.04685
G1 X171.142 Y76.296 E0.00846
G1 X170.257 Y76.297 E0.02776
G1 X169.139 Y76.558 E0.03597
G1 X168.110 Y77.105 E0.03654
G1 X167.221 Y77.923 E0.03789
G1 X166.596 Y78.823 E0.03435
G1 X166.196 Y79.891 E0.03577
G1 X166.101 Y99.072 E0.60140
G1 X166.291 Y100.119 E0.03337
G1 X166.715 Y101.125 E0.03424
G1 X167.632 Y102.263 E0.04582
G1 X168.385 Y102.879 E0.03050
G1 X170.254 Y103.559 E0.06236
G1 X177.287 Y103.591 E0.22051
G1 X177.287 Y126.287 E0.71160
G1 X155.381 Y126.287 E0.68684
G1 X155.046 Y125.329 E0.03180
G1 X154.388 Y124.345 E0.03713
G1 X153.397 Y123.453 E0.04181
G1 X151.767 Y122.724 E0.05598
G1 X150.974 Y122.623 E0.02506
G1 X140.361 Y122.623 E0.33276
G1 X138.670 Y123.108 E0.05515
G1 X137.610 Y123.822 E0.04009
G1 X136.722 Y124.828 E0.04206
G1 X136.203 Y125.868 E0.03646
G1 X136.093 Y126.287 E0.01355
G1 X113.902 Y126.287 E0.69578
G1 X113.460 Y125.120 E0.03911
G1 X112.800 Y124.229 E0.03478
G1 X111.729 Y123.324 E0.04397
G1 X110.709 Y122.852 E0.03522
G1 X109.540 Y122.623 E0.03736
G1 X104.933 Y122.623 E0.14446
G1 X98.889 Y122.623 E0.18951
G1 X97.394 Y123.015 E0.04846
G1 X96.337 Y123.653 E0.03869
G1 X95.471 Y124.513 E0.03828
G1 X94.904 Y125.433 E0.03386
G1 X94.617 Y126.287 E0.02825
G1 X72.713 Y126.287 E0.68675
G1 X72.713 Y103.576 E0.71206
G1 X73.003 Y103.564 E0.00909
G1 X73.976 Y103.346 E0.03126
G1 X75.206 Y102.688 E0.04373
G1 X76.221 Y101.667 E0.04514
G1 X76.787 Y100.678 E0.03573
G1 X77.093 Y99.508 E0.03791
G1 X77.111 Y73.870 E0.80386
G1 X76.896 Y72.712 E0.03693
G1 X76.557 Y72.027 E0.02395
G1 X76.143 Y72.027 F10800.000
G1 F1200.000
G1 X76.545 Y72.854 E0.02881
G1 X76.734 Y73.887 E0.03294
G1 X76.716 Y99.483 E0.80255
M73 P0 R341
G1 X76.430 Y100.556 E0.03481
G1 X75.907 Y101.455 E0.03261
G1 X74.960 Y102.400 E0.04196
G1 X73.824 Y103.001 E0.04029
G1 X72.945 Y103.191 E0.02819
G1 X72.336 Y103.198 E0.01910
G1 X72.336 Y126.664 E0.73575
G1 X94.890 Y126.664 E0.70715
G1 X95.238 Y125.610 E0.03480
G1 X95.754 Y124.763 E0.03108
G1 X96.554 Y123.962 E0.03549
G1 X97.518 Y123.372 E0.03544
G1 X98.914 Y123.001 E0.04529
G1 X104.933 Y123.001 E0.18873
G1 X109.522 Y123.001 E0.14389
G1 X110.574 Y123.205 E0.03360
G1 X111.506 Y123.629 E0.03210
G1 X112.539 Y124.502 E0.04242
G1 X113.140 Y125.321 E0.03185
G1 X113.640 Y126.664 E0.04491
G1 X136.391 Y126.664 E0.71336
G1 X136.550 Y126.017 E0.02089
G1 X137.048 Y125.018 E0.03499
G1 X137.842 Y124.120 E0.03759
G1 X138.805 Y123.461 E0.03657
G1 X140.388 Y123.001 E0.05169
G1 X150.962 Y123.001 E0.33153
G1 X151.690 Y123.094 E0.02304
G1 X153.213 Y123.783 E0.05241
G1 X154.116 Y124.607 E0.03831
G1 X154.718 Y125.516 E0.03420
G1 X155.110 Y126.664 E0.03802
G1 X177.664 Y126.664 E0.70715
G1 X177.664 Y103.215 E0.73522
G1 X170.350 Y103.193 E0.22932
G1 X168.597 Y102.566 E0.05837
G1 X167.912 Y102.009 E0.02768
G1 X167.051 Y100.952 E0.04274
G1 X166.658 Y100.029 E0.03145
G1 X166.478 Y99.055 E0.03106
G1 X166.561 Y79.990 E0.59778
G1 X166.920 Y79.016 E0.03254
G1 X167.493 Y78.184 E0.03168
G1 X168.309 Y77.426 E0.03493
G1 X169.294 Y76.903 E0.03495
G1 X170.318 Y76.670 E0.03294
G1 X171.162 Y76.673 E0.02647
G1 X171.421 Y76.644 E0.00817
G1 X173.279 Y76.644 E0.05824
G1 X173.301 Y73.534 E0.09751
G1 X173.623 Y72.410 E0.03669
G1 X173.849 Y72.027 E0.01392
G1 X174.072 Y71.650 F10800.000
G1 F1200.000
G1 X174.195 Y71.441 E0.00762
G1 X174.960 Y70.671 E0.03403
G1 X176.093 Y70.003 E0.04124
G1 X177.359 Y69.691 E0.04089
G1 X195.667 Y69.701 E0.57404
G1 X197.309 Y70.222 E0.05400
G1 X198.069 Y70.753 E0.02908
G1 X198.645 Y71.337 E0.02572
G1 X199.268 Y72.326 E0.03666
G1 X199.633 Y73.566 E0.04051
G1 X199.662 Y92.335 E0.58849
G1 X199.412 Y93.463 E0.03623
G1 X198.868 Y94.465 E0.03575
G1 X197.836 Y95.485 E0.04551
G1 X197.295 Y95.767 E0.01912
G1 X196.893 Y95.976 F10800.000
G1 F1200.000
G1 X196.770 Y96.040 E0.00432
G1 X195.814 Y96.243 E0.03067
G1 X194.973 Y96.243 E0.02637
G1 X194.336 Y96.282 E0.01999
G1 X194.336 Y119.417 E0.72538
;WIPE_START
G1 F8640.000
G1 X194.336 Y116.125 E-0.76000
;WIPE_END
G1 E-0.04000 F2100.000
G1 Z0.600 F10800.000
G1 X194.336 Y122.895
G1 Z0.200
G1 E0.80000 F2100.000
G1 F1200.000
G1 X194.336 Y139.486 E0.52020
G1 X194.055 Y140.620 E0.03664
G1 X193.682 Y141.356 E0.02585
G1 X192.828 Y142.307 E0.04007
G1 X192.111 Y142.831 E0.02784
G1 X190.509 Y143.336 E0.05269
G1 X172.273 Y143.336 E0.57175
;WIPE_START
G1 F8640.000
G1 X175.565 Y143.336 E-0.76000
;WIPE_END
G1 E-0.04000 F2100.000
G1 Z0.600 F10800.000
G1 X168.453 Y143.336
G1 Z0.200
G1 E0.80000 F2100.000
G1 F1200.000
G1 X155.146 Y143.336 E0.41721
G1 X155.121 Y143.709 E0.01173
G1 X154.799 Y144.691 E0.03238
G1 X154.583 Y145.091 F10800.000
G1 F1200.000
G1 X154.205 Y145.661 E0.02144
G1 X153.505 Y146.355 E0.03091
G1 X152.297 Y147.025 E0.04332
G1 X151.398 Y147.228 E0.02888
G1 X150.474 Y147.235 E0.02897
G1 X150.223 Y147.262 E0.00792
G1 X141.255 Y147.262 E0.28118
G1 X141.009 Y147.235 E0.00777
G1 X140.192 Y147.239 E0.02562
G1 X139.497 Y147.129 E0.02207
G1 X138.194 Y146.514 E0.04518
G1 X137.122 Y145.471 E0.04690
G1 X136.921 Y145.094 F10800.000
G1 F1200.000
G1 X136.521 Y144.343 E0.02669
G1 X136.296 Y143.336 E0.03233
G1 X113.704 Y143.336 E0.70834
G1 X113.479 Y144.343 E0.03233
G1 X113.079 Y145.095 E0.02673
G1 X112.878 Y145.472 F10800.000
G1 F1200.000
G1 X111.806 Y146.514 E0.04686
G1 X110.503 Y147.129 E0.04518
G1 X109.808 Y147.239 E0.02207
G1 X108.991 Y147.235 E0.02562
G1 X108.745 Y147.262 E0.00777
G1 X99.777 Y147.262 E0.28118
G1 X99.526 Y147.235 E0.00792
G1 X98.602 Y147.228 E0.02897
G1 X97.703 Y147.025 E0.02888
G1 X96.495 Y146.355 E0.04332
G1 X95.795 Y145.661 E0.03091
G1 X95.413 Y145.085 E0.02168
G1 X95.199 Y144.685 F10800.000
G1 F1200.000
G1 X94.879 Y143.709 E0.03218
G1 X94.854 Y143.336 E0.01173
G1 X81.587 Y143.336 E0.41597
;WIPE_START
G1 F8640.000
G1 X84.878 Y143.336 E-0.76000
;WIPE_END
G1 E-0.04000 F2100.000
G1 Z0.600 F10800.000
G1 X77.761 Y143.336
G1 Z0.200
G1 E0.80000 F2100.000
G1 F1200.000
G1 X59.514 Y143.336 E0.57212
G1 X58.380 Y143.055 E0.03664
G1 X57.644 Y142.682 E0.02585
G1 X56.693 Y141.828 E0.04007
G1 X56.169 Y141.111 E0.02784
G1 X55.664 Y139.509 E0.05269
G1 X55.664 Y125.314 E0.44505
;WIPE_START
G1 F8640.000
G1 X55.664 Y128.606 E-0.76000
;WIPE_END
G1 E-0.04000 F2100.000
G1 Z0.600 F10800.000
G1 X55.664 Y122.341
G1 Z0.200
G1 E0.80000 F2100.000
G1 F1200.000
G1 X55.664 Y103.235 E0.59906
G1 X55.027 Y103.196 E0.01998
G1 X54.188 Y103.197 E0.02631
G1 X53.244 Y102.999 E0.03026
G1 X53.187 Y102.970 E0.00200
G1 X52.780 Y102.764 F10800.000
G1 F1200.000
G1 X52.235 Y102.488 E0.01916
G1 X51.332 Y101.661 E0.03839
G1 X50.725 Y100.741 E0.03455
G1 X50.338 Y99.357 E0.04508
G1 X50.338 Y73.784 E0.80181
G1 X50.637 Y72.560 E0.03951
G1 X51.057 Y71.724 E0.02934
G1 X51.983 Y70.719 E0.04283
G1 X52.599 Y70.264 E0.02402
G1 X54.408 Y69.691 E0.05950
G1 X72.641 Y69.691 E0.57168
G1 X73.907 Y70.001 E0.04086
G1 X75.057 Y70.684 E0.04195
G1 X75.957 Y71.650 E0.04140
G1 X75.731 Y72.027 F10800.000
G1 F1200.000
G1 X76.194 Y72.993 E0.03357
G1 X76.357 Y73.903 E0.02900
G1 X76.339 Y99.457 E0.80123
G1 X76.073 Y100.431 E0.03166
G1 X75.596 Y101.242 E0.02950
G1 X74.715 Y102.112 E0.03881
G1 X73.719 Y102.637 E0.03531
G1 X72.886 Y102.818 E0.02673
G1 X71.959 Y102.820 E0.02905
G1 X71.959 Y127.041 E0.75942
M73 Q0 S345
G1 X95.247 Y127.041 E0.73015
G1 X95.273 Y126.707 E0.01050
G1 X95.572 Y125.785 E0.03039
G1 X96.038 Y125.012 E0.02830
G1 X96.773 Y124.270 E0.03272
G1 X97.644 Y123.728 E0.03218
G1 X98.939 Y123.378 E0.04207
G1 X104.933 Y123.378 E0.18793
G1 X109.504 Y123.378 E0.14333
G1 X110.441 Y123.558 E0.02991
G1 X111.285 Y123.935 E0.02897
G1 X112.251 Y124.746 E0.03954
G1 X112.796 Y125.479 E0.02865
G1 X113.241 Y126.673 E0.03997
G1 X113.274 Y127.041 E0.01156
G1 X136.691 Y127.041 E0.73424
G1 X136.898 Y126.165 E0.02822
G1 X137.375 Y125.209 E0.03350
G1 X138.076 Y124.416 E0.03319
G1 X138.942 Y123.814 E0.03306
G1 X140.415 Y123.378 E0.04818
G1 X150.949 Y123.378 E0.33027
G1 X151.613 Y123.464 E0.02098
G1 X153.028 Y124.113 E0.04881
G1 X153.842 Y124.867 E0.03479
G1 X154.389 Y125.702 E0.03130
G1 X154.727 Y126.709 E0.03331
G1 X154.755 Y127.041 E0.01044
G1 X178.041 Y127.041 E0.73009
G1 X178.041 Y102.838 E0.75886
G1 X170.444 Y102.827 E0.23818
G1 X168.808 Y102.251 E0.05439
G1 X168.190 Y101.754 E0.02486
G1 X167.386 Y100.777 E0.03966
G1 X167.024 Y99.939 E0.02865
G1 X166.856 Y99.038 E0.02872
G1 X166.927 Y80.088 E0.59420
G1 X167.246 Y79.209 E0.02932
G1 X167.766 Y78.446 E0.02894
G1 X168.547 Y77.720 E0.03345
G1 X169.446 Y77.248 E0.03183
G1 X170.338 Y77.047 E0.02866
G1 X171.184 Y77.051 E0.02654
G1 X171.433 Y77.021 E0.00785
G1 X173.653 Y77.021 E0.06963
G1 X173.678 Y73.563 E0.10844
G1 X173.961 Y72.579 E0.03210
G1 X174.283 Y72.027 E0.02002
G1 X174.519 Y71.650 F10800.000
G1 F1200.000
G1 X175.211 Y70.954 E0.03078
G1 X176.212 Y70.362 E0.03646
G1 X177.382 Y70.068 E0.03785
G1 X195.637 Y70.078 E0.57236
G1 X197.165 Y70.571 E0.05033
G1 X197.813 Y71.030 E0.02492
G1 X198.337 Y71.556 E0.02328
G1 X198.935 Y72.505 E0.03514
G1 X199.263 Y73.644 E0.03720
G1 X199.285 Y92.315 E0.58540
G1 X199.068 Y93.307 E0.03183
G1 X198.550 Y94.259 E0.03400
G1 X197.593 Y95.195 E0.04199
G1 X197.343 Y95.325 E0.00882
G1 X196.941 Y95.534 F10800.000
G1 F1200.000
G1 X196.666 Y95.677 E0.00971
G1 X195.793 Y95.866 E0.02800
G1 X194.946 Y95.866 E0.02657
G1 X194.707 Y95.894 E0.00752
G1 X193.959 Y95.894 E0.02345
G1 X193.959 Y122.875 E0.84598
;WIPE_START
G1 F8640.000
G1 X193.959 Y119.583 E-0.76000
;WIPE_END
G1 E-0.04000 F2100.000
G1 Z0.600 F10800.000
G1 X193.959 Y126.353
G1 Z0.200
G1 E0.80000 F2100.000
G1 F1200.000
G1 X193.959 Y139.462 E0.41103
G1 X193.695 Y140.506 E0.03376
G1 X193.358 Y141.161 E0.02308
G1 X192.563 Y142.039 E0.03715
G1 X191.915 Y142.507 E0.02506
