; generated by PrusaSlicer 2.3.3+win64 on 2022-01-30 at 19:02:33 UTC

; 

; external perimeters extrusion width = 0.45mm
; perimeters extrusion width = 0.45mm
; infill extrusion width = 0.45mm
; solid infill extrusion width = 0.45mm
; top infill extrusion width = 0.40mm
; support material extrusion width = 0.35mm
; first layer extrusion width = 0.42mm

M73 P0 R175
M73 Q0 S176
M201 X1000 Y1000 Z200 E5000 ; sets maximum accelerations, mm/sec^2
M203 X200 Y200 Z12 E120 ; sets maximum feedrates, mm/sec
M204 P1250 R1250 T1250 ; sets acceleration (P, T) and retract acceleration (R), mm/sec^2
M205 X8.00 Y8.00 Z0.40 E4.50 ; sets the jerk limits, mm/sec
M205 S0 T0 ; sets the minimum extruding and travel feed rate, mm/sec
M107
;TYPE:Custom
M862.3 P "MK3S" ; printer model check
M862.1 P0.4 ; nozzle diameter check
M115 U3.10.0 ; tell printer latest fw version
G90 ; use absolute coordinates
M83 ; extruder relative mode
M104 S215 ; set extruder temp
M140 S60 ; set bed temp
M190 S60 ; wait for bed temp
M109 S215 ; wait for extruder temp
G28 W ; home all without mesh bed level
G80 ; mesh bed leveling
G1 Y-3.0 F1000.0 ; go outside print area
G92 E0.0
G1 X60.0 E9.0 F1000.0 ; intro line
G1 X100.0 E12.5 F1000.0 ; intro line
G92 E0.0
M221 S95

; Don't change E values below. Excessive value can damage the printer.
M907 E430 ; set extruder motor current
G21 ; set units to millimeters
G90 ; use absolute coordinates
M83 ; use relative distances for extrusion
M900 K0.05 ; Filament gcode LA 1.5
M900 K30 ; Filament gcode LA 1.0
;LAYER_CHANGE
;Z:0.2
;HEIGHT:0.2
;BEFORE_LAYER_CHANGE
G92 E0.0
;0.2


G1 E-0.80000 F2100.000
G1 Z0.400 F10800.000
;AFTER_LAYER_CHANGE
;0.2
G1 X94.275 Y82.736
G1 Z0.200
G1 E0.80000 F2100.000
M204 S1000
;TYPE:Skirt
;WIDTH:0.42
G1 F1200.000
G1 X94.984 Y82.623 E0.02249
G1 X155.004 Y82.623 E1.88189
G1 X155.895 Y82.798 E0.02849
G1 X156.656 Y83.295 E0.02849
G1 X157.175 Y84.041 E0.02849
G1 X157.376 Y84.927 E0.02849
G1 X157.376 Y125.057 E1.25827
G1 X157.299 Y125.603 E0.01728
G1 X157.097 Y126.119 E0.01740
G1 X156.783 Y126.572 E0.01728
G1 X156.370 Y126.943 E0.01740
G1 X155.725 Y127.264 E0.02260
G1 X155.016 Y127.377 E0.02249
G1 X94.977 Y127.377 E1.88249
G1 X94.423 Y127.306 E0.01752
G1 X93.897 Y127.106 E0.01763
G1 X93.434 Y126.788 E0.01763
G1 X93.057 Y126.370 E0.01763
G1 X92.737 Y125.728 E0.02249
G1 X92.623 Y125.024 E0.02237
G1 X92.623 Y84.970 E1.25588
G1 X92.696 Y84.416 E0.01752
G1 X92.896 Y83.894 E0.01752
G1 X93.215 Y83.431 E0.01763
G1 X93.630 Y83.057 E0.01752
G1 X94.222 Y82.763 E0.02072
;WIPE_START
G1 F8640.000
G1 X94.984 Y82.623 E-0.17886
G1 X97.500 Y82.623 E-0.58114
;WIPE_END
G1 E-0.04000 F2100.000
G1 Z0.600 F10800.000
G1 X92.336 Y81.074
G1 Z0.200
G1 E0.80000 F2100.000
G1 F1200.000
G1 X93.268 Y80.585 E0.03298
G1 X94.491 Y80.286 E0.03946
G1 X155.486 Y80.290 E1.91248
G1 X156.435 Y80.474 E0.03029
G1 X157.343 Y80.865 E0.03101
G1 X158.562 Y81.888 E0.04990
G1 X159.353 Y83.106 E0.04551
G1 X159.713 Y84.489 E0.04481
G1 X159.713 Y125.510 E1.28619
M73 P0 R174
M73 Q0 S175
G1 X159.415 Y126.733 E0.03948
G1 X158.996 Y127.569 E0.02932
G1 X157.664 Y128.926 E0.05964
G1 X156.732 Y129.415 E0.03298
G1 X155.510 Y129.713 E0.03945
G1 X94.490 Y129.713 E1.91322
G1 X93.267 Y129.415 E0.03948
G1 X92.431 Y128.996 E0.02932
G1 X91.074 Y127.664 E0.05964
G1 X90.585 Y126.732 E0.03298
G1 X90.287 Y125.510 E0.03945
G1 X90.287 Y84.490 E1.28613
G1 X90.585 Y83.267 E0.03948
G1 X91.004 Y82.431 E0.02932
G1 X92.294 Y81.116 E0.05775
G1 X92.562 Y81.381 F10800.000
G1 F1200.000
G1 X93.381 Y80.945 E0.02908
G1 X94.514 Y80.664 E0.03662
G1 X155.468 Y80.667 E1.91116
G1 X156.341 Y80.840 E0.02791
G1 X157.166 Y81.199 E0.02823
G1 X158.297 Y82.158 E0.04647
G1 X158.996 Y83.232 E0.04018
G1 X159.336 Y84.513 E0.04157
G1 X159.336 Y125.486 E1.28467
G1 X159.055 Y126.620 E0.03664
G1 X158.673 Y127.371 E0.02640
G1 X157.417 Y128.640 E0.05598
G1 X156.619 Y129.055 E0.02819
G1 X155.486 Y129.336 E0.03661
G1 X94.514 Y129.336 E1.91175
G1 X93.380 Y129.055 E0.03664
G1 X92.629 Y128.673 E0.02640
G1 X91.360 Y127.417 E0.05598
G1 X90.945 Y126.619 E0.02819
G1 X90.664 Y125.486 E0.03661
G1 X90.664 Y84.514 E1.28466
G1 X90.945 Y83.380 E0.03664
G1 X91.327 Y82.629 E0.02640
G1 X92.520 Y81.424 E0.05316
G1 X92.828 Y81.648 F10800.000
G1 F1200.000
G1 X93.494 Y81.305 E0.02348
G1 X94.538 Y81.041 E0.03376
G1 X155.448 Y81.044 E1.90981
G1 X156.246 Y81.205 E0.02550
G1 X156.988 Y81.533 E0.02545
G1 X158.030 Y82.426 E0.04302
G1 X158.663 Y83.410 E0.03669
G1 X158.959 Y84.538 E0.03655
G1 X158.959 Y125.462 E1.28317
G1 X158.695 Y126.506 E0.03376
G1 X158.352 Y127.172 E0.02348
G1 X157.172 Y128.352 E0.05234
G1 X156.506 Y128.695 E0.02348
G1 X155.462 Y128.959 E0.03376
G1 X94.538 Y128.959 E1.91025
G1 X93.494 Y128.695 E0.03376
G1 X92.828 Y128.352 E0.02348
G1 X91.648 Y127.172 E0.05234
G1 X91.305 Y126.506 E0.02348
G1 X91.041 Y125.462 E0.03376
G1 X91.041 Y84.538 E1.28316
G1 X91.305 Y83.494 E0.03376
G1 X91.648 Y82.828 E0.02348
G1 X92.786 Y81.690 E0.05045
G1 X93.029 Y81.969 F10800.000
G1 F1200.000
G1 X93.611 Y81.665 E0.02058
G1 X94.562 Y81.418 E0.03083
G1 X155.429 Y81.421 E1.90842
G1 X156.148 Y81.570 E0.02304
G1 X156.808 Y81.865 E0.02266
G1 X157.762 Y82.692 E0.03960
G1 X158.306 Y83.537 E0.03149
G1 X158.582 Y84.563 E0.03331
G1 X158.582 Y125.438 E1.28161
G1 X158.335 Y126.389 E0.03083
G1 X158.031 Y126.971 E0.02058
G1 X156.971 Y128.031 E0.04702
G1 X156.389 Y128.335 E0.02058
G1 X155.438 Y128.582 E0.03083
G1 X94.562 Y128.582 E1.90871
G1 X93.611 Y128.335 E0.03083
G1 X93.029 Y128.031 E0.02058
G1 X91.969 Y126.971 E0.04702
G1 X91.665 Y126.389 E0.02058
G1 X91.418 Y125.438 E0.03083
G1 X91.418 Y84.562 E1.28163
G1 X91.665 Y83.611 E0.03083
G1 X91.969 Y83.029 E0.02058
G1 X92.986 Y82.011 E0.04513
G1 X93.231 Y82.288 F10800.000
G1 F1200.000
G1 X93.729 Y82.023 E0.01770
G1 X94.587 Y81.795 E0.02783
G1 X155.410 Y81.798 E1.90704
G1 X156.013 Y81.923 E0.01933
G1 X156.628 Y82.197 E0.02110
G1 X157.492 Y82.957 E0.03609
G1 X157.972 Y83.714 E0.02809
G1 X158.205 Y84.587 E0.02835
G1 X158.205 Y125.413 E1.28005
G1 X157.977 Y126.271 E0.02783
G1 X157.712 Y126.769 E0.01770
G1 X156.769 Y127.712 E0.04182
G1 X156.271 Y127.977 E0.01770
G1 X155.413 Y128.205 E0.02783
G1 X94.587 Y128.205 E1.90714
G1 X93.729 Y127.977 E0.02783
G1 X93.231 Y127.712 E0.01770
G1 X92.288 Y126.769 E0.04182
G1 X92.023 Y126.271 E0.01770
G1 X91.795 Y125.413 E0.02783
G1 X91.795 Y84.587 E1.28005
G1 X92.023 Y83.729 E0.02783
G1 X92.288 Y83.231 E0.01770
G1 X93.189 Y82.330 E0.03994
G1 X93.435 Y82.606 F10800.000
G1 F1200.000
G1 X93.851 Y82.380 E0.01483
G1 X94.613 Y82.172 E0.02477
G1 X155.389 Y82.176 E1.90559
G1 X155.914 Y82.287 E0.01681
G1 X156.445 Y82.528 E0.01829
G1 X157.222 Y83.221 E0.03263
G1 X157.616 Y83.841 E0.02306
G1 X157.828 Y84.613 E0.02510
G1 X157.828 Y125.387 E1.27843
G1 X157.620 Y126.149 E0.02477
G1 X157.394 Y126.565 E0.01483
G1 X156.565 Y127.394 E0.03678
G1 X156.149 Y127.620 E0.01483
G1 X155.387 Y127.828 E0.02477
G1 X94.613 Y127.828 E1.90551
M73 Q0 S174
G1 X93.851 Y127.620 E0.02477
G1 X93.435 Y127.394 E0.01483
G1 X92.606 Y126.565 E0.03678
G1 X92.380 Y126.149 E0.01483
M73 P0 R173
G1 X92.172 Y125.387 E0.02477
G1 X92.172 Y84.613 E1.27843
G1 X92.380 Y83.851 E0.02477
G1 X92.606 Y83.435 E0.01483
G1 X93.393 Y82.648 E0.03490
;WIPE_START
G1 F8640.000
G1 X93.851 Y82.380 E-0.12259
G1 X94.613 Y82.172 E-0.18242
G1 X96.584 Y82.172 E-0.45498
;WIPE_END
G1 E-0.04000 F2100.000
G1 Z0.600 F10800.000
G1 X94.668 Y82.926
G1 Z0.200
G1 E0.80000 F2100.000
G1 F1200.000
G1 X155.346 Y82.930 E1.90250
G1 X155.705 Y83.013 E0.01157
G1 X156.071 Y83.185 E0.01268
G1 X156.676 Y83.743 E0.02580
G1 X156.908 Y84.105 E0.01347
G1 X157.074 Y84.668 E0.01841
G1 X157.074 Y125.332 E1.27499
G1 X156.909 Y125.894 E0.01838
G1 X156.763 Y126.149 E0.00919
G1 X156.149 Y126.763 E0.02726
G1 X155.894 Y126.909 E0.00919
G1 X155.332 Y127.074 E0.01838
G1 X94.668 Y127.074 E1.90207
G1 X94.106 Y126.909 E0.01838
G1 X93.851 Y126.763 E0.00919
G1 X93.237 Y126.149 E0.02726
G1 X93.091 Y125.894 E0.00919
G1 X92.926 Y125.332 E0.01838
G1 X92.926 Y84.668 E1.27499
G1 X93.091 Y84.106 E0.01838
G1 X93.237 Y83.851 E0.00919
G1 X93.851 Y83.237 E0.02726
G1 X94.106 Y83.091 E0.00919
G1 X94.611 Y82.943 E0.01650
G1 X94.698 Y83.303 F10800.000
G1 F1200.000
G1 X155.324 Y83.307 E1.90090
G1 X155.562 Y83.362 E0.00767
G1 X155.882 Y83.513 E0.01109
G1 X156.401 Y84.001 E0.02233
G1 X156.556 Y84.242 E0.00898
G1 X156.697 Y84.698 E0.01495
G1 X156.697 Y125.302 E1.27313
G1 X156.556 Y125.759 E0.01500
G1 X156.452 Y125.936 E0.00641
G1 X155.936 Y126.452 E0.02289
G1 X155.759 Y126.556 E0.00641
G1 X155.302 Y126.697 E0.01500
G1 X94.698 Y126.697 E1.90022
G1 X94.241 Y126.556 E0.01500
G1 X94.064 Y126.452 E0.00641
G1 X93.548 Y125.936 E0.02289
M73 P1 R173
G1 X93.444 Y125.759 E0.00641
G1 X93.303 Y125.302 E0.01500
G1 X93.303 Y84.698 E1.27313
M73 Q1 S174
G1 X93.444 Y84.241 E0.01500
G1 X93.548 Y84.064 E0.00641
G1 X94.064 Y83.548 E0.02289
G1 X94.241 Y83.444 E0.00641
G1 X94.640 Y83.321 E0.01312
G1 X94.383 Y83.794 F10800.000
G1 F1200.000
G1 X94.729 Y83.680 E0.01144
G1 X155.302 Y83.684 E1.89921
G1 X155.419 Y83.711 E0.00377
G1 X155.692 Y83.840 E0.00947
G1 X156.123 Y84.257 E0.01880
G1 X156.207 Y84.385 E0.00479
G1 X156.320 Y84.729 E0.01136
G1 X156.320 Y125.271 E1.27115
G1 X156.206 Y125.617 E0.01144
G1 X156.144 Y125.717 E0.00369
G1 X155.717 Y126.144 E0.01893
G1 X155.617 Y126.206 E0.00369
G1 X155.271 Y126.320 E0.01144
G1 X94.729 Y126.320 E1.89823
G1 X94.383 Y126.206 E0.01144
G1 X94.283 Y126.144 E0.00369
G1 X93.856 Y125.717 E0.01893
G1 X93.794 Y125.617 E0.00369
G1 X93.680 Y125.271 E0.01144
G1 X93.680 Y84.729 E1.27115
G1 X93.794 Y84.383 E0.01144
G1 X93.856 Y84.283 E0.00369
G1 X94.332 Y83.826 E0.02069
G1 X94.537 Y84.139 F10800.000
G1 F1200.000
G1 X94.764 Y84.057 E0.00757
G1 X155.250 Y84.057 E1.89648
G1 X155.500 Y84.167 E0.00856
G1 X155.843 Y84.510 E0.01522
G1 X155.943 Y84.764 E0.00856
G1 X155.943 Y125.236 E1.26895
G1 X155.843 Y125.490 E0.00856
G1 X155.490 Y125.843 E0.01566
G1 X155.236 Y125.943 E0.00856
G1 X94.764 Y125.943 E1.89603
G1 X94.510 Y125.843 E0.00856
G1 X94.157 Y125.490 E0.01566
G1 X94.057 Y125.236 E0.00856
G1 X94.057 Y84.764 E1.26895
G1 X94.157 Y84.510 E0.00856
G1 X94.491 Y84.176 E0.01480
G1 X94.737 Y84.463 F10800.000
G1 F1200.000
G1 X94.806 Y84.434 E0.00235
G1 X155.194 Y84.434 E1.89340
G1 X155.263 Y84.463 E0.00235
G1 X155.537 Y84.737 E0.01215
G1 X155.566 Y84.806 E0.00235
G1 X155.566 Y125.194 E1.26632
G1 X155.537 Y125.263 E0.00235
G1 X155.263 Y125.537 E0.01215
G1 X155.194 Y125.566 E0.00235
G1 X94.806 Y125.566 E1.89340
G1 X94.737 Y125.537 E0.00235
G1 X94.463 Y125.263 E0.01215
G1 X94.434 Y125.194 E0.00235
G1 X94.434 Y84.806 E1.26632
G1 X94.463 Y84.737 E0.00235
G1 X94.695 Y84.506 E0.01027
G1 X94.922 Y84.811 F10800.000
G1 F1200.000
G1 X155.078 Y84.811 E1.88616
G1 X155.189 Y84.922 E0.00490
G1 X155.189 Y125.078 E1.25907
M73 Q1 S173
G1 X155.078 Y125.189 E0.00490
G1 X94.922 Y125.189 E1.88616
M73 P1 R172
G1 X94.811 Y125.078 E0.00490
G1 X94.811 Y84.922 E1.25907
G1 X94.879 Y84.854 E0.00302
; printing object Tilt_Metal_Attachment.stl id:0 copy 0
G1 X95.410 Y85.410 F10800.000
;TYPE:External perimeter
G1 F1200.000
G1 X154.590 Y85.410 E1.85555
G1 X154.590 Y124.590 E1.22846
G1 X95.410 Y124.590 E1.85555
G1 X95.410 Y85.470 E1.22658
G1 X95.802 Y85.487 F10800.000
G1 X95.787 Y85.787
;TYPE:Perimeter
G1 F1200.000
G1 X154.213 Y85.787 E1.83190
G1 X154.213 Y124.213 E1.20482
G1 X95.787 Y124.213 E1.83190
G1 X95.787 Y85.847 E1.20293
;WIPE_START
G1 F8640.000
G1 X99.079 Y85.844 E-0.76000
;WIPE_END
G1 E-0.04000 F2100.000
G1 Z0.600 F10800.000
G1 X104.394 Y113.188
G1 Z0.200
G1 E0.80000 F2100.000
;TYPE:External perimeter
G1 F1200.000
G1 X104.664 Y113.119 E0.00872
G1 X104.920 Y113.091 E0.00806
G1 X105.219 Y113.102 E0.00941
G1 X105.472 Y113.149 E0.00806
G1 X105.736 Y113.237 E0.00872
G1 X105.986 Y113.363 E0.00877
G1 X106.231 Y113.539 E0.00945
G1 X106.431 Y113.734 E0.00877
G1 X106.599 Y113.955 E0.00872
G1 X106.725 Y114.179 E0.00804
G1 X106.826 Y114.439 E0.00875
G1 X106.892 Y114.733 E0.00945
G1 X106.910 Y115.011 E0.00874
G1 X106.892 Y115.268 E0.00806
G1 X106.826 Y115.561 E0.00943
G1 X106.725 Y115.821 E0.00875
G1 X106.599 Y116.045 E0.00804
G1 X106.431 Y116.266 E0.00872
G1 X106.231 Y116.461 E0.00877
G1 X105.986 Y116.636 E0.00943
G1 X105.758 Y116.754 E0.00806
G1 X105.494 Y116.846 E0.00874
G1 X105.198 Y116.900 E0.00943
G1 X104.941 Y116.910 E0.00806
G1 X104.664 Y116.881 E0.00875
G1 X104.373 Y116.805 E0.00943
G1 X104.136 Y116.704 E0.00806
G1 X103.898 Y116.561 E0.00872
G1 X103.682 Y116.383 E0.00877
G1 X103.481 Y116.159 E0.00945
G1 X103.328 Y115.925 E0.00877
G1 X103.212 Y115.672 E0.00872
G1 X103.138 Y115.426 E0.00804
G1 X103.095 Y115.151 E0.00875
G1 X103.095 Y114.849 E0.00945
G1 X103.138 Y114.574 E0.00875
G1 X103.212 Y114.328 E0.00804
G1 X103.328 Y114.075 E0.00874
G1 X103.494 Y113.824 E0.00943
G1 X103.666 Y113.633 E0.00806
G1 X103.879 Y113.453 E0.00874
G1 X104.136 Y113.296 E0.00945
G1 X104.339 Y113.211 E0.00688
G1 X104.449 Y112.915 F10800.000
G1 X103.965 Y112.959
;TYPE:Perimeter
G1 F1200.000
G1 X104.275 Y112.829 E0.01053
G1 X104.597 Y112.747 E0.01042
G1 X104.906 Y112.713 E0.00976
G1 X105.261 Y112.726 E0.01114
G1 X105.567 Y112.783 E0.00976
G1 X105.882 Y112.888 E0.01042
G1 X106.182 Y113.040 E0.01053
G1 X106.474 Y113.249 E0.01125
G1 X106.714 Y113.483 E0.01053
G1 X106.915 Y113.748 E0.01042
G1 X107.067 Y114.017 E0.00970
G1 X107.188 Y114.329 E0.01048
G1 X107.266 Y114.679 E0.01125
G1 X107.288 Y115.012 E0.01048
G1 X107.266 Y115.323 E0.00975
G1 X107.188 Y115.671 E0.01120
G1 X107.067 Y115.983 E0.01048
G1 X106.915 Y116.252 E0.00970
G1 X106.714 Y116.517 E0.01042
G1 X106.474 Y116.751 E0.01053
G1 X106.183 Y116.959 E0.01120
G1 X105.906 Y117.101 E0.00976
G1 X105.591 Y117.211 E0.01048
G1 X105.240 Y117.276 E0.01120
G1 X104.929 Y117.287 E0.00976
G1 X104.597 Y117.253 E0.01048
G1 X104.251 Y117.163 E0.01120
G1 X103.965 Y117.041 E0.00976
G1 X103.680 Y116.870 E0.01042
G1 X103.420 Y116.656 E0.01053
G1 X103.181 Y116.389 E0.01125
G1 X102.997 Y116.108 E0.01053
G1 X102.858 Y115.806 E0.01042
G1 X102.769 Y115.510 E0.00970
G1 X102.718 Y115.179 E0.01048
G1 X102.718 Y114.821 E0.01125
G1 X102.769 Y114.490 E0.01048
G1 X102.858 Y114.194 E0.00970
G1 X102.998 Y113.891 E0.01048
G1 X103.195 Y113.593 E0.01120
G1 X103.403 Y113.361 E0.00976
G1 X103.658 Y113.146 E0.01048
G1 X103.913 Y112.990 E0.00937
;WIPE_START
G1 F8640.000
G1 X104.275 Y112.829 E-0.09129
G1 X104.597 Y112.747 E-0.07672
G1 X104.906 Y112.713 E-0.07185
G1 X105.261 Y112.726 E-0.08203
G1 X105.567 Y112.783 E-0.07184
G1 X105.882 Y112.888 E-0.07672
G1 X106.182 Y113.040 E-0.07758
G1 X106.474 Y113.249 E-0.08287
G1 X106.714 Y113.483 E-0.07757
G1 X106.849 Y113.661 E-0.05154
;WIPE_END
G1 E-0.04000 F2100.000
G1 Z0.600 F10800.000
G1 X104.941 Y96.910
G1 Z0.200
G1 E0.80000 F2100.000
;TYPE:External perimeter
G1 F1200.000
G1 X104.664 Y96.881 E0.00875
G1 X104.373 Y96.805 E0.00943
G1 X104.136 Y96.704 E0.00806
G1 X103.898 Y96.561 E0.00872
G1 X103.682 Y96.383 E0.00877
G1 X103.481 Y96.159 E0.00945
G1 X103.328 Y95.925 E0.00877
G1 X103.212 Y95.672 E0.00872
G1 X103.138 Y95.426 E0.00804
G1 X103.095 Y95.151 E0.00875
G1 X103.095 Y94.849 E0.00945
G1 X103.138 Y94.574 E0.00875
G1 X103.212 Y94.328 E0.00804
G1 X103.328 Y94.075 E0.00874
G1 X103.494 Y93.824 E0.00943
G1 X103.666 Y93.633 E0.00806
G1 X103.879 Y93.453 E0.00874
G1 X104.136 Y93.296 E0.00945
G1 X104.394 Y93.188 E0.00877
G1 X104.664 Y93.119 E0.00872
G1 X104.919 Y93.091 E0.00804
G1 X105.198 Y93.100 E0.00875
G1 X105.494 Y93.154 E0.00945
G1 X105.758 Y93.246 E0.00874
G1 X105.986 Y93.364 E0.00806
G1 X106.231 Y93.539 E0.00943
G1 X106.431 Y93.734 E0.00877
G1 X106.599 Y93.955 E0.00872
G1 X106.725 Y94.179 E0.00804
G1 X106.826 Y94.439 E0.00875
G1 X106.892 Y94.733 E0.00945
G1 X106.910 Y95.011 E0.00874
G1 X106.892 Y95.268 E0.00806
G1 X106.826 Y95.561 E0.00943
G1 X106.725 Y95.821 E0.00875
G1 X106.599 Y96.045 E0.00804
G1 X106.431 Y96.266 E0.00872
G1 X106.231 Y96.461 E0.00877
G1 X105.986 Y96.636 E0.00943
G1 X105.758 Y96.754 E0.00806
G1 X105.494 Y96.846 E0.00874
G1 X105.198 Y96.900 E0.00943
G1 X105.001 Y96.907 E0.00618
G1 X104.795 Y97.147 F10800.000
G1 X105.240 Y97.276
;TYPE:Perimeter
G1 F1200.000
G1 X104.929 Y97.287 E0.00976
