; generated by PrusaSlicer 2.3.3+win64 on 2022-01-09 at 03:49:56 UTC

; 

; external perimeters extrusion width = 0.45mm
; perimeters extrusion width = 0.45mm
; infill extrusion width = 0.45mm
; solid infill extrusion width = 0.45mm
; top infill extrusion width = 0.40mm
; support material extrusion width = 0.35mm
; first layer extrusion width = 0.42mm

M73 P0 R15
M73 Q0 S15
M201 X1000 Y1000 Z200 E5000 ; sets maximum accelerations, mm/sec^2
M203 X200 Y200 Z12 E120 ; sets maximum feedrates, mm/sec
M204 P1250 R1250 T1250 ; sets acceleration (P, T) and retract acceleration (R), mm/sec^2
M205 X8.00 Y8.00 Z0.40 E4.50 ; sets the jerk limits, mm/sec
M205 S0 T0 ; sets the minimum extruding and travel feed rate, mm/sec
M107
;TYPE:Custom
M862.3 P "MK3S" ; printer model check
M862.1 P0.4 ; nozzle diameter check
M115 U3.10.0 ; tell printer latest fw version
G90 ; use absolute coordinates
M83 ; extruder relative mode
M104 S215 ; set extruder temp
M140 S60 ; set bed temp
M190 S60 ; wait for bed temp
M109 S215 ; wait for extruder temp
G28 W ; home all without mesh bed level
G80 ; mesh bed leveling
G1 Y-3.0 F1000.0 ; go outside print area
G92 E0.0
G1 X60.0 E9.0 F1000.0 ; intro line
G1 X100.0 E12.5 F1000.0 ; intro line
G92 E0.0
M221 S95

; Don't change E values below. Excessive value can damage the printer.

M907 E538 ; set extruder motor current
G21 ; set units to millimeters
G90 ; use absolute coordinates
M83 ; use relative distances for extrusion
M900 K0.05 ; Filament gcode LA 1.5
M900 K30 ; Filament gcode LA 1.0
;LAYER_CHANGE
;Z:0.2
;HEIGHT:0.2
;BEFORE_LAYER_CHANGE
G92 E0.0
;0.2


G1 E-0.80000 F2100.000
G1 Z0.400 F10800.000
;AFTER_LAYER_CHANGE
;0.2
; printing object Gear_Attachment.stl id:1 copy 0
G1 X115.163 Y108.978
G1 Z0.200
G1 E0.80000 F2100.000
M204 S1000
;TYPE:Perimeter
;WIDTH:0.42
G1 F1200.000
G1 X115.365 Y108.770 E0.00908
G1 X115.713 Y108.480 E0.01421
G1 X115.956 Y108.317 E0.00917
G1 X116.215 Y108.175 E0.00927
G1 X116.480 Y108.058 E0.00908
G1 X116.915 Y107.919 E0.01430
G1 X117.486 Y107.826 E0.01815
G1 X117.939 Y107.821 E0.01421
G1 X118.231 Y107.849 E0.00917
G1 X118.521 Y107.903 E0.00927
G1 X118.801 Y107.979 E0.00908
G1 X119.225 Y108.146 E0.01430
G1 X119.482 Y108.280 E0.00908
G1 X119.732 Y108.439 E0.00928
G1 X119.962 Y108.614 E0.00908
G1 X120.289 Y108.924 E0.01411
G1 X120.573 Y109.272 E0.01411
G1 X120.731 Y109.515 E0.00908
G1 X120.870 Y109.776 E0.00928
G1 X120.985 Y110.042 E0.00908
G1 X121.119 Y110.478 E0.01430
G1 X121.175 Y110.762 E0.00908
G1 X121.206 Y111.056 E0.00928
G1 X121.212 Y111.346 E0.00908
G1 X121.173 Y111.800 E0.01430
G1 X121.118 Y112.085 E0.00908
G1 X121.037 Y112.369 E0.00928
G1 X120.934 Y112.640 E0.00908
G1 X120.727 Y113.047 E0.01430
G1 X120.391 Y113.518 E0.01814
G1 X120.074 Y113.845 E0.01430
G1 X119.851 Y114.031 E0.00908
G1 X119.614 Y114.196 E0.00908
G1 X119.216 Y114.415 E0.01421
G1 X118.947 Y114.528 E0.00917
G1 X118.665 Y114.618 E0.00927
G1 X118.376 Y114.684 E0.00928
G1 X118.090 Y114.724 E0.00908
G1 X117.640 Y114.738 E0.01411
G1 X117.192 Y114.695 E0.01411
G1 X116.909 Y114.637 E0.00908
G1 X116.625 Y114.552 E0.00928
G1 X116.355 Y114.447 E0.00908
G1 X115.953 Y114.237 E0.01421
G1 X115.715 Y114.078 E0.00898
G1 X115.367 Y113.788 E0.01421
G1 X115.163 Y113.578 E0.00917
G1 X114.976 Y113.349 E0.00927
G1 X114.813 Y113.110 E0.00908
G1 X114.599 Y112.710 E0.01421
G1 X114.489 Y112.439 E0.00917
G1 X114.404 Y112.163 E0.00908
G1 X114.317 Y111.715 E0.01430
G1 X114.292 Y111.426 E0.00908
G1 X114.292 Y111.130 E0.00928
G1 X114.317 Y110.842 E0.00908
G1 X114.403 Y110.397 E0.01421
G1 X114.489 Y110.117 E0.00917
G1 X114.600 Y109.843 E0.00927
G1 X114.731 Y109.585 E0.00908
G1 X114.980 Y109.203 E0.01430
G1 X115.125 Y109.025 E0.00720
G1 X114.833 Y108.786 F10800.000
;TYPE:External perimeter
G1 F1200.000
G1 X115.108 Y108.493 E0.01260
G1 X115.487 Y108.177 E0.01548
G1 X115.761 Y107.995 E0.01031
G1 X116.048 Y107.837 E0.01029
G1 X116.346 Y107.705 E0.01022
G1 X116.819 Y107.553 E0.01557
G1 X117.138 Y107.488 E0.01022
G1 X117.462 Y107.449 E0.01022
G1 X117.955 Y107.444 E0.01548
G1 X118.283 Y107.476 E0.01031
G1 X118.605 Y107.535 E0.01029
G1 X118.920 Y107.621 E0.01022
G1 X119.382 Y107.802 E0.01557
G1 X119.671 Y107.953 E0.01022
G1 X119.948 Y108.129 E0.01029
G1 X120.207 Y108.327 E0.01022
G1 X120.566 Y108.667 E0.01550
G1 X120.878 Y109.050 E0.01550
G1 X121.056 Y109.323 E0.01022
G1 X121.210 Y109.612 E0.01029
G1 X121.339 Y109.912 E0.01022
G1 X121.486 Y110.386 E0.01557
G1 X121.548 Y110.706 E0.01022
M73 Q1 S15
G1 X121.583 Y111.032 E0.01029
G1 X121.590 Y111.358 E0.01022
G1 X121.547 Y111.853 E0.01557
G1 X121.485 Y112.173 E0.01022
G1 X121.395 Y112.488 E0.01029
G1 X121.279 Y112.793 E0.01022
G1 X121.054 Y113.235 E0.01557
G1 X120.877 Y113.509 E0.01022
G1 X120.676 Y113.766 E0.01022
G1 X120.331 Y114.122 E0.01557
G1 X120.080 Y114.331 E0.01022
G1 X119.813 Y114.517 E0.01022
G1 X119.380 Y114.755 E0.01548
G1 X119.077 Y114.882 E0.01031
G1 X118.765 Y114.982 E0.01029
G1 X118.445 Y115.055 E0.01029
G1 X118.122 Y115.100 E0.01022
G1 X117.628 Y115.116 E0.01550
G1 X117.136 Y115.068 E0.01550
M73 P1 R15
G1 X116.817 Y115.003 E0.01022
G1 X116.502 Y114.909 E0.01029
G1 X116.199 Y114.790 E0.01022
G1 X115.761 Y114.562 E0.01548
G1 X115.489 Y114.381 E0.01024
G1 X115.110 Y114.065 E0.01547
G1 X114.881 Y113.829 E0.01031
G1 X114.674 Y113.575 E0.01029
G1 X114.490 Y113.306 E0.01022
G1 X114.257 Y112.871 E0.01548
G1 X114.133 Y112.566 E0.01031
G1 X114.037 Y112.254 E0.01022
G1 X113.943 Y111.767 E0.01557
G1 X113.915 Y111.442 E0.01022
G1 X113.915 Y111.114 E0.01029
G1 X113.943 Y110.789 E0.01022
G1 X114.037 Y110.305 E0.01548
G1 X114.134 Y109.991 E0.01031
G1 X114.257 Y109.687 E0.01029
G1 X114.404 Y109.396 E0.01022
G1 X114.675 Y108.980 E0.01557
G1 X114.795 Y108.833 E0.00595
G1 X115.226 Y108.859 F10800.000
;WIPE_START
G1 F8640.000
G1 X115.108 Y108.493 E-0.10661
G1 X115.487 Y108.177 E-0.11396
G1 X115.761 Y107.995 E-0.07594
G1 X116.048 Y107.837 E-0.07576
G1 X116.346 Y107.705 E-0.07525
G1 X116.819 Y107.553 E-0.11464
G1 X117.138 Y107.488 E-0.07525
G1 X117.462 Y107.449 E-0.07526
G1 X117.667 Y107.447 E-0.04734
;WIPE_END
G1 E-0.04000 F2100.000
G1 Z0.600 F10800.000
G1 X119.224 Y108.273
G1 Z0.200
G1 E0.80000 F2100.000
;TYPE:Solid infill
;WIDTH:0.438885
G1 F1200.000
G1 X120.138 Y109.187 E0.04258
G1 X120.344 Y109.439 E0.01072
G1 X120.615 Y109.899 E0.01757
G1 X120.719 Y110.140 E0.00864
G1 X120.803 Y110.412 E0.00936
G1 X118.612 Y108.221 E0.10201
G1 X118.191 Y108.130 E0.01417
G1 X117.937 Y108.105 E0.00843
G1 X120.924 Y111.093 E0.13911
G1 X120.929 Y111.337 E0.00804
G1 X120.904 Y111.633 E0.00977
G1 X117.398 Y108.127 E0.16323
G1 X116.924 Y108.213 E0.01587
G1 X120.818 Y112.106 E0.18130
G1 X120.676 Y112.524 E0.01453
G1 X116.507 Y108.355 E0.19411
G1 X116.134 Y108.542 E0.01374
G1 X120.487 Y112.896 E0.20269
G1 X120.254 Y113.223 E0.01322
G1 X115.804 Y108.772 E0.20723
G1 X115.504 Y109.033 E0.01307
G1 X119.993 Y113.522 E0.20904
G1 X119.700 Y113.789 E0.01305
G1 X115.241 Y109.330 E0.20762
G1 X115.017 Y109.665 E0.01329
G1 X119.363 Y114.012 E0.20238
G1 X118.993 Y114.202 E0.01369
G1 X114.827 Y110.036 E0.19398
G1 X114.682 Y110.451 E0.01448
G1 X118.579 Y114.347 E0.18143
G1 X118.107 Y114.436 E0.01580
G1 X114.593 Y110.922 E0.16361
G1 X114.575 Y111.142 E0.00729
G1 X114.579 Y111.468 E0.01071
G1 X117.558 Y114.446 E0.13869
G1 X117.234 Y114.415 E0.01069
G1 X116.887 Y114.335 E0.01175
G1 X114.693 Y112.142 E0.10213
G1 X114.855 Y112.590 E0.01570
G1 X115.055 Y112.963 E0.01393
G1 X115.203 Y113.180 E0.00864
G1 X115.342 Y113.351 E0.00726
G1 X116.262 Y114.270 E0.04281
; stop printing object Gear_Attachment.stl id:1 copy 0
; printing object Gear_Attachment.stl id:0 copy 0
;WIPE_START
G1 F8640.000
G1 X115.342 Y113.351 E-0.30026
G1 X115.203 Y113.180 E-0.05094
G1 X115.055 Y112.963 E-0.06061
G1 X114.855 Y112.590 E-0.09771
G1 X114.693 Y112.142 E-0.11007
G1 X115.123 Y112.572 E-0.14041
;WIPE_END
G1 E-0.04000 F2100.000
G1 Z0.600 F10800.000
G1 X128.836 Y111.821
G1 Z0.200
G1 E0.80000 F2100.000
;TYPE:Perimeter
;WIDTH:0.42
G1 F1200.000
G1 X128.791 Y111.426 E0.01247
G1 X128.791 Y111.130 E0.00928
G1 X128.816 Y110.842 E0.00908
G1 X128.902 Y110.397 E0.01421
G1 X128.988 Y110.117 E0.00917
G1 X129.099 Y109.843 E0.00927
G1 X129.230 Y109.585 E0.00908
G1 X129.479 Y109.203 E0.01430
G1 X129.864 Y108.770 E0.01815
G1 X130.212 Y108.480 E0.01421
G1 X130.455 Y108.317 E0.00917
G1 X130.714 Y108.175 E0.00927
G1 X130.979 Y108.058 E0.00908
G1 X131.414 Y107.919 E0.01430
G1 X131.697 Y107.860 E0.00908
G1 X131.985 Y107.826 E0.00908
G1 X132.438 Y107.821 E0.01421
G1 X132.730 Y107.849 E0.00917
G1 X133.020 Y107.903 E0.00927
G1 X133.300 Y107.979 E0.00908
G1 X133.724 Y108.146 E0.01430
G1 X133.981 Y108.280 E0.00908
G1 X134.231 Y108.439 E0.00928
G1 X134.461 Y108.614 E0.00908
G1 X134.788 Y108.924 E0.01411
G1 X135.072 Y109.272 E0.01411
G1 X135.230 Y109.515 E0.00908
G1 X135.369 Y109.776 E0.00928
G1 X135.484 Y110.042 E0.00908
G1 X135.618 Y110.478 E0.01430
G1 X135.674 Y110.762 E0.00908
G1 X135.705 Y111.056 E0.00928
G1 X135.711 Y111.346 E0.00908
G1 X135.672 Y111.800 E0.01430
G1 X135.617 Y112.085 E0.00908
G1 X135.536 Y112.369 E0.00928
G1 X135.433 Y112.640 E0.00908
G1 X135.226 Y113.047 E0.01430
G1 X135.068 Y113.289 E0.00908
G1 X134.890 Y113.518 E0.00908
G1 X134.573 Y113.845 E0.01430
G1 X134.113 Y114.196 E0.01815
G1 X133.716 Y114.415 E0.01421
G1 X133.446 Y114.528 E0.00917
G1 X133.164 Y114.618 E0.00927
G1 X132.876 Y114.684 E0.00928
G1 X132.589 Y114.724 E0.00908
G1 X132.139 Y114.738 E0.01411
G1 X131.691 Y114.695 E0.01411
G1 X131.408 Y114.637 E0.00908
G1 X131.124 Y114.552 E0.00928
G1 X130.854 Y114.447 E0.00908
G1 X130.452 Y114.237 E0.01421
G1 X130.214 Y114.078 E0.00898
G1 X129.866 Y113.788 E0.01421
G1 X129.662 Y113.578 E0.00917
G1 X129.475 Y113.349 E0.00927
G1 X129.312 Y113.110 E0.00908
G1 X129.098 Y112.710 E0.01421
G1 X128.988 Y112.439 E0.00917
G1 X128.903 Y112.163 E0.00908
G1 X128.848 Y111.880 E0.00901
G1 X128.478 Y111.952 F10800.000
;TYPE:External perimeter
G1 F1200.000
G1 X128.442 Y111.767 E0.00592
G1 X128.414 Y111.442 E0.01022
G1 X128.414 Y111.114 E0.01029
G1 X128.442 Y110.789 E0.01022
G1 X128.536 Y110.305 E0.01548
G1 X128.633 Y109.991 E0.01031
G1 X128.756 Y109.687 E0.01029
G1 X128.903 Y109.396 E0.01022
G1 X129.174 Y108.980 E0.01557
G1 X129.380 Y108.727 E0.01022
G1 X129.607 Y108.493 E0.01022
G1 X129.986 Y108.177 E0.01548
G1 X130.260 Y107.995 E0.01031
G1 X130.547 Y107.837 E0.01029
G1 X130.845 Y107.705 E0.01022
G1 X131.318 Y107.553 E0.01557
G1 X131.637 Y107.488 E0.01022
G1 X131.961 Y107.449 E0.01022
G1 X132.454 Y107.444 E0.01548
G1 X132.782 Y107.476 E0.01031
G1 X133.104 Y107.535 E0.01029
G1 X133.419 Y107.621 E0.01022
G1 X133.881 Y107.802 E0.01557
G1 X134.170 Y107.953 E0.01022
G1 X134.447 Y108.129 E0.01029
G1 X134.706 Y108.327 E0.01022
G1 X135.065 Y108.667 E0.01550
G1 X135.377 Y109.050 E0.01550
G1 X135.555 Y109.323 E0.01022
G1 X135.710 Y109.612 E0.01029
G1 X135.838 Y109.912 E0.01022
G1 X135.985 Y110.386 E0.01557
G1 X136.047 Y110.706 E0.01022
G1 X136.082 Y111.032 E0.01029
G1 X136.089 Y111.358 E0.01022
G1 X136.046 Y111.853 E0.01557
G1 X135.984 Y112.173 E0.01022
G1 X135.894 Y112.488 E0.01029
G1 X135.778 Y112.793 E0.01022
G1 X135.553 Y113.235 E0.01557
G1 X135.376 Y113.509 E0.01022
G1 X135.175 Y113.766 E0.01022
G1 X134.830 Y114.122 E0.01557
G1 X134.579 Y114.331 E0.01022
G1 X134.312 Y114.517 E0.01022
G1 X133.879 Y114.755 E0.01548
G1 X133.576 Y114.882 E0.01031
G1 X133.264 Y114.982 E0.01029
G1 X132.944 Y115.055 E0.01029
G1 X132.621 Y115.100 E0.01022
G1 X132.127 Y115.116 E0.01550
G1 X131.635 Y115.068 E0.01550
G1 X131.316 Y115.003 E0.01022
G1 X131.001 Y114.909 E0.01029
G1 X130.698 Y114.790 E0.01022
G1 X130.260 Y114.562 E0.01548
G1 X129.988 Y114.381 E0.01024
G1 X129.609 Y114.065 E0.01547
G1 X129.380 Y113.829 E0.01031
G1 X129.173 Y113.575 E0.01029
G1 X128.989 Y113.306 E0.01022
G1 X128.756 Y112.871 E0.01548
G1 X128.633 Y112.566 E0.01031
G1 X128.536 Y112.254 E0.01022
G1 X128.489 Y112.011 E0.00776
G1 X128.618 Y111.826 F10800.000
;WIPE_START
G1 F8640.000
G1 X128.442 Y111.767 E-0.05746
G1 X128.414 Y111.442 E-0.07525
G1 X128.414 Y111.114 E-0.07577
G1 X128.442 Y110.789 E-0.07526
G1 X128.536 Y110.305 E-0.11397
G1 X128.633 Y109.991 E-0.07593
G1 X128.756 Y109.687 E-0.07576
G1 X128.903 Y109.396 E-0.07525
G1 X129.174 Y108.980 E-0.11464
G1 X129.231 Y108.910 E-0.02071
;WIPE_END
G1 E-0.04000 F2100.000
G1 Z0.600 F10800.000
G1 X133.723 Y108.273
G1 Z0.200
M73 Q2 S15
G1 E0.80000 F2100.000
;TYPE:Solid infill
;WIDTH:0.438885
G1 F1200.000
G1 X134.637 Y109.187 E0.04258
G1 X134.843 Y109.439 E0.01072
G1 X135.114 Y109.899 E0.01757
G1 X135.218 Y110.140 E0.00864
G1 X135.302 Y110.412 E0.00936
G1 X133.111 Y108.221 E0.10201
M73 P2 R15
G1 X132.690 Y108.130 E0.01417
G1 X132.436 Y108.105 E0.00843
G1 X135.423 Y111.093 E0.13911
G1 X135.428 Y111.337 E0.00804
G1 X135.403 Y111.633 E0.00977
G1 X131.897 Y108.127 E0.16323
G1 X131.423 Y108.213 E0.01587
G1 X135.317 Y112.106 E0.18130
G1 X135.175 Y112.524 E0.01453
G1 X131.006 Y108.355 E0.19411
G1 X130.633 Y108.542 E0.01374
G1 X134.986 Y112.896 E0.20269
G1 X134.753 Y113.223 E0.01322
G1 X130.303 Y108.772 E0.20723
G1 X130.003 Y109.033 E0.01307
G1 X134.492 Y113.522 E0.20904
G1 X134.199 Y113.789 E0.01305
G1 X129.740 Y109.330 E0.20762
G1 X129.516 Y109.665 E0.01329
G1 X133.862 Y114.012 E0.20238
G1 X133.492 Y114.202 E0.01369
G1 X129.326 Y110.036 E0.19398
G1 X129.181 Y110.451 E0.01448
G1 X133.078 Y114.347 E0.18143
G1 X132.606 Y114.436 E0.01580
G1 X129.093 Y110.922 E0.16361
G1 X129.074 Y111.142 E0.00729
G1 X129.078 Y111.468 E0.01071
G1 X132.057 Y114.446 E0.13869
G1 X131.733 Y114.415 E0.01069
G1 X131.386 Y114.335 E0.01175
G1 X129.192 Y112.142 E0.10213
G1 X129.354 Y112.590 E0.01570
G1 X129.554 Y112.963 E0.01393
G1 X129.702 Y113.180 E0.00864
G1 X129.841 Y113.351 E0.00726
G1 X130.761 Y114.270 E0.04281
; stop printing object Gear_Attachment.stl id:0 copy 0
; printing object Gear_Attachment.stl id:2 copy 0
;WIPE_START
G1 F8640.000
G1 X129.841 Y113.351 E-0.30026
G1 X129.702 Y113.180 E-0.05094
G1 X129.554 Y112.963 E-0.06061
G1 X129.354 Y112.590 E-0.09771
G1 X129.192 Y112.142 E-0.11007
G1 X129.622 Y112.572 E-0.14041
;WIPE_END
G1 E-0.04000 F2100.000
G1 Z0.600 F10800.000
G1 X126.196 Y101.971
G1 Z0.200
G1 E0.80000 F2100.000
;TYPE:Perimeter
;WIDTH:0.42
G1 F1200.000
G1 X125.914 Y102.061 E0.00927
G1 X125.626 Y102.127 E0.00928
G1 X125.339 Y102.167 E0.00908
G1 X124.890 Y102.182 E0.01411
G1 X124.442 Y102.138 E0.01411
G1 X124.158 Y102.080 E0.00908
G1 X123.874 Y101.996 E0.00928
G1 X123.605 Y101.890 E0.00908
G1 X123.203 Y101.680 E0.01421
G1 X122.964 Y101.522 E0.00898
G1 X122.616 Y101.232 E0.01421
G1 X122.413 Y101.022 E0.00917
G1 X122.226 Y100.793 E0.00927
G1 X122.063 Y100.553 E0.00908
G1 X121.848 Y100.154 E0.01421
G1 X121.739 Y99.883 E0.00917
G1 X121.653 Y99.606 E0.00908
G1 X121.566 Y99.158 E0.01430
G1 X121.541 Y98.870 E0.00908
G1 X121.541 Y98.574 E0.00928
G1 X121.566 Y98.285 E0.00908
G1 X121.653 Y97.840 E0.01421
G1 X121.739 Y97.561 E0.00917
G1 X121.850 Y97.286 E0.00927
G1 X121.981 Y97.028 E0.00908
G1 X122.230 Y96.646 E0.01430
G1 X122.614 Y96.213 E0.01815
G1 X122.962 Y95.923 E0.01421
G1 X123.206 Y95.761 E0.00917
G1 X123.465 Y95.619 E0.00927
G1 X123.730 Y95.501 E0.00908
G1 X124.164 Y95.362 E0.01430
G1 X124.448 Y95.304 E0.00908
G1 X124.736 Y95.270 E0.00908
G1 X125.189 Y95.265 E0.01421
G1 X125.480 Y95.293 E0.00917
G1 X125.771 Y95.346 E0.00927
G1 X126.050 Y95.423 E0.00908
G1 X126.475 Y95.589 E0.01430
G1 X126.732 Y95.723 E0.00908
G1 X126.981 Y95.882 E0.00928
G1 X127.212 Y96.058 E0.00908
G1 X127.538 Y96.367 E0.01411
G1 X127.822 Y96.716 E0.01411
G1 X127.980 Y96.959 E0.00908
G1 X128.120 Y97.219 E0.00928
G1 X128.234 Y97.486 E0.00908
G1 X128.369 Y97.921 E0.01430
G1 X128.424 Y98.206 E0.00908
G1 X128.456 Y98.500 E0.00928
G1 X128.462 Y98.789 E0.00908
G1 X128.423 Y99.244 E0.01430
G1 X128.368 Y99.528 E0.00908
G1 X128.286 Y99.813 E0.00928
G1 X128.184 Y100.083 E0.00908
G1 X127.977 Y100.490 E0.01430
G1 X127.819 Y100.733 E0.00908
G1 X127.641 Y100.961 E0.00908
G1 X127.323 Y101.289 E0.01430
G1 X126.863 Y101.640 E0.01815
G1 X126.466 Y101.858 E0.01421
G1 X126.251 Y101.948 E0.00729
G1 X126.397 Y102.296 F10800.000
;TYPE:External perimeter
