; generated by PrusaSlicer 2.3.3+win64 on 2022-01-15 at 17:00:07 UTC

; 

; external perimeters extrusion width = 0.45mm
; perimeters extrusion width = 0.45mm
; infill extrusion width = 0.45mm
; solid infill extrusion width = 0.45mm
; top infill extrusion width = 0.40mm
; support material extrusion width = 0.33mm
; first layer extrusion width = 0.42mm

M73 P0 R47
M73 Q0 S47
M201 X1000 Y1000 Z200 E5000 ; sets maximum accelerations, mm/sec^2
M203 X200 Y200 Z12 E120 ; sets maximum feedrates, mm/sec
M204 P1250 R1250 T1250 ; sets acceleration (P, T) and retract acceleration (R), mm/sec^2
M205 X8.00 Y8.00 Z0.40 E4.50 ; sets the jerk limits, mm/sec
M205 S0 T0 ; sets the minimum extruding and travel feed rate, mm/sec
M107
;TYPE:Custom
M862.3 P "MK3S" ; printer model check
M862.1 P0.4 ; nozzle diameter check
M115 U3.10.0 ; tell printer latest fw version
G90 ; use absolute coordinates
M83 ; extruder relative mode
M104 S215 ; set extruder temp
M140 S60 ; set bed temp
M190 S60 ; wait for bed temp
M109 S215 ; wait for extruder temp
G28 W ; home all without mesh bed level
G80 ; mesh bed leveling
G1 Y-3.0 F1000.0 ; go outside print area
G92 E0.0
G1 X60.0 E9.0 F1000.0 ; intro line
G1 X100.0 E12.5 F1000.0 ; intro line
G92 E0.0
M221 S100

; Don't change E values below. Excessive value can damage the printer.
M907 E430 ; set extruder motor current
G21 ; set units to millimeters
G90 ; use absolute coordinates
M83 ; use relative distances for extrusion
M900 K0.05 ; Filament gcode LA 1.5
M900 K30 ; Filament gcode LA 1.0
;LAYER_CHANGE
;Z:0.2
;HEIGHT:0.2
;BEFORE_LAYER_CHANGE
G92 E0.0
;0.2


M73 P0 R46
G1 E-0.80000 F2100.000
G1 Z0.400 F10800.000
;AFTER_LAYER_CHANGE
;0.2
G1 X105.519 Y90.009
G1 Z0.200
G1 E0.80000 F2100.000
M204 S500
;TYPE:Skirt
;WIDTH:0.42
G1 F1200.000
G1 X110.446 Y85.084 E0.21843
G1 X110.992 Y84.699 E0.02095
G1 X111.624 Y84.481 E0.02095
G1 X138.169 Y84.438 E0.83231
G1 X139.064 Y84.614 E0.02860
G1 X139.827 Y85.115 E0.02860
G1 X144.984 Y90.519 E0.23422
G1 X145.328 Y91.034 E0.01941
G1 X145.528 Y91.619 E0.01941
G1 X145.574 Y117.829 E0.82177
G1 X145.465 Y118.511 E0.02166
G1 X145.165 Y119.133 E0.02166
G1 X144.481 Y119.991 E0.03441
G1 X139.548 Y124.921 E0.21866
G1 X138.984 Y125.313 E0.02154
G1 X138.331 Y125.527 E0.02154
G1 X111.804 Y125.562 E0.83173
G1 X111.122 Y125.453 E0.02166
G1 X110.500 Y125.152 E0.02166
G1 X110.125 Y124.836 E0.01538
G1 X105.019 Y119.484 E0.23195
G1 X104.655 Y118.932 E0.02071
G1 X104.457 Y118.298 E0.02083
G1 X104.426 Y92.168 E0.81930
G1 X104.535 Y91.489 E0.02154
G1 X104.835 Y90.867 E0.02166
G1 X105.482 Y90.056 E0.03252
M204 S1000
; printing object HD_BearingShaft1.stl id:2 copy 0
;WIPE_START
G1 F8640.000
G1 X107.807 Y87.727 E-0.76000
;WIPE_END
G1 E-0.04000 F2100.000
G1 Z0.600 F10800.000
G1 X127.733 Y123.185
G1 Z0.200
G1 E0.80000 F2100.000
M204 S500
;TYPE:Support material
G1 F1200.000
G1 X137.925 Y123.185 E0.31955
G1 X138.464 Y122.646 E0.02389
G1 X127.435 Y122.646 E0.34581
G1 X126.896 Y122.108 E0.02389
G1 X139.002 Y122.108 E0.37959
G1 X139.541 Y121.569 E0.02389
G1 X126.357 Y121.569 E0.41337
G1 X126.340 Y121.551 E0.00079
G1 X126.340 Y121.379 E0.00540
G1 X126.167 Y121.379 E0.00540
G1 X125.819 Y121.030 E0.01546
G1 X140.080 Y121.030 E0.44715
G1 X140.619 Y120.492 E0.02389
G1 X125.280 Y120.492 E0.48093
G1 X124.741 Y119.953 E0.02389
G1 X141.157 Y119.953 E0.51471
G1 X141.378 Y119.732 E0.00980
G1 X141.378 Y119.560 E0.00540
G1 X141.551 Y119.560 E0.00540
G1 X141.696 Y119.414 E0.00645
G1 X124.203 Y119.414 E0.54849
G1 X123.664 Y118.876 E0.02389
G1 X142.235 Y118.876 E0.58227
G1 X142.773 Y118.337 E0.02389
G1 X123.125 Y118.337 E0.61605
G1 X122.701 Y117.913 E0.01881
G1 X122.701 Y117.798 E0.00359
G1 X143.197 Y117.798 E0.64265
G1 X143.197 Y117.259 E0.01689
G1 X122.701 Y117.259 E0.64265
G1 X122.701 Y116.721 E0.01689
G1 X143.197 Y116.721 E0.64265
G1 X143.197 Y116.182 E0.01689
G1 X122.701 Y116.182 E0.64265
G1 X122.701 Y115.643 E0.01689
G1 X143.197 Y115.643 E0.64265
M73 P1 R46
M73 Q1 S47
G1 X143.197 Y115.105 E0.01689
G1 X122.701 Y115.105 E0.64265
G1 X122.701 Y114.566 E0.01689
G1 X143.197 Y114.566 E0.64265
G1 X143.197 Y114.027 E0.01689
G1 X122.701 Y114.027 E0.64265
M73 Q1 S46
G1 X122.701 Y113.489 E0.01689
G1 X143.197 Y113.489 E0.64265
G1 X143.197 Y112.950 E0.01689
G1 X122.701 Y112.950 E0.64265
G1 X122.701 Y112.411 E0.01689
G1 X143.197 Y112.411 E0.64265
G1 X143.197 Y111.873 E0.01689
G1 X122.701 Y111.873 E0.64265
G1 X122.701 Y111.334 E0.01689
G1 X143.197 Y111.334 E0.64265
G1 X143.197 Y110.795 E0.01689
G1 X122.701 Y110.795 E0.64265
G1 X122.701 Y110.257 E0.01689
G1 X143.197 Y110.257 E0.64265
G1 X143.197 Y109.718 E0.01689
G1 X122.701 Y109.718 E0.64265
G1 X122.701 Y109.179 E0.01689
G1 X143.197 Y109.179 E0.64265
G1 X143.197 Y108.641 E0.01689
G1 X122.701 Y108.641 E0.64265
G1 X122.701 Y108.102 E0.01689
G1 X143.197 Y108.102 E0.64265
G1 X143.197 Y107.987 E0.00359
G1 X142.773 Y107.563 E0.01881
G1 X123.125 Y107.563 E0.61605
G1 X123.664 Y107.024 E0.02389
G1 X142.235 Y107.024 E0.58227
G1 X141.696 Y106.486 E0.02389
G1 X124.203 Y106.486 E0.54849
G1 X124.348 Y106.340 E0.00645
G1 X124.520 Y106.340 E0.00540
G1 X124.520 Y106.168 E0.00540
G1 X124.741 Y105.947 E0.00979
G1 X141.157 Y105.947 E0.51471
G1 X140.619 Y105.408 E0.02389
G1 X125.280 Y105.408 E0.48093
G1 X125.819 Y104.870 E0.02389
G1 X140.080 Y104.870 E0.44715
G1 X139.731 Y104.521 E0.01546
G1 X139.559 Y104.521 E0.00540
G1 X139.559 Y104.349 E0.00540
G1 X139.541 Y104.331 E0.00078
G1 X126.357 Y104.331 E0.41337
G1 X126.896 Y103.792 E0.02389
G1 X139.003 Y103.792 E0.37959
G1 X138.464 Y103.254 E0.02389
G1 X127.435 Y103.254 E0.34581
G1 X127.973 Y102.715 E0.02389
G1 X138.165 Y102.715 E0.31956
M204 S1000
; stop printing object HD_BearingShaft1.stl id:2 copy 0
; printing object HD_BearingShaft1.stl id:3 copy 0
;WIPE_START
G1 F8640.000
G1 X134.874 Y102.715 E-0.76000
;WIPE_END
G1 E-0.04000 F2100.000
G1 Z0.600 F10800.000
G1 X111.835 Y123.185
G1 Z0.200
G1 E0.80000 F2100.000
M204 S500
G1 F1200.000
G1 X122.027 Y123.185 E0.31955
G1 X122.565 Y122.646 E0.02389
G1 X111.536 Y122.646 E0.34581
G1 X110.997 Y122.108 E0.02389
G1 X123.104 Y122.108 E0.37959
G1 X123.643 Y121.569 E0.02389
G1 X110.459 Y121.569 E0.41337
G1 X110.441 Y121.551 E0.00079
G1 X110.441 Y121.379 E0.00540
G1 X110.269 Y121.379 E0.00540
G1 X109.920 Y121.030 E0.01546
G1 X124.181 Y121.030 E0.44715
G1 X124.720 Y120.492 E0.02389
G1 X109.381 Y120.492 E0.48093
M73 P2 R46
M73 Q2 S46
G1 X108.843 Y119.953 E0.02389
G1 X125.259 Y119.953 E0.51471
G1 X125.480 Y119.732 E0.00980
G1 X125.480 Y119.560 E0.00540
G1 X125.652 Y119.560 E0.00540
G1 X125.797 Y119.414 E0.00645
G1 X108.304 Y119.414 E0.54849
G1 X107.765 Y118.876 E0.02389
G1 X126.336 Y118.876 E0.58227
G1 X126.875 Y118.337 E0.02389
G1 X107.227 Y118.337 E0.61605
G1 X106.803 Y117.913 E0.01881
G1 X106.803 Y117.798 E0.00359
G1 X127.299 Y117.798 E0.64265
G1 X127.299 Y117.259 E0.01689
G1 X106.803 Y117.259 E0.64265
G1 X106.803 Y116.721 E0.01689
G1 X127.299 Y116.721 E0.64265
G1 X127.299 Y116.182 E0.01689
G1 X106.803 Y116.182 E0.64265
M73 P2 R45
G1 X106.803 Y115.643 E0.01689
G1 X127.299 Y115.643 E0.64265
G1 X127.299 Y115.105 E0.01689
G1 X106.803 Y115.105 E0.64265
G1 X106.803 Y114.566 E0.01689
G1 X127.299 Y114.566 E0.64265
G1 X127.299 Y114.027 E0.01689
G1 X106.803 Y114.027 E0.64265
G1 X106.803 Y113.489 E0.01689
G1 X127.299 Y113.489 E0.64265
G1 X127.299 Y112.950 E0.01689
G1 X106.803 Y112.950 E0.64265
G1 X106.803 Y112.411 E0.01689
G1 X127.299 Y112.411 E0.64265
G1 X127.299 Y111.873 E0.01689
G1 X106.803 Y111.873 E0.64265
G1 X106.803 Y111.334 E0.01689
G1 X127.299 Y111.334 E0.64265
G1 X127.299 Y110.795 E0.01689
G1 X106.803 Y110.795 E0.64265
G1 X106.803 Y110.257 E0.01689
G1 X127.299 Y110.257 E0.64265
G1 X127.299 Y109.718 E0.01689
G1 X106.803 Y109.718 E0.64265
G1 X106.803 Y109.179 E0.01689
G1 X127.299 Y109.179 E0.64265
G1 X127.299 Y108.641 E0.01689
G1 X106.803 Y108.641 E0.64265
G1 X106.803 Y108.102 E0.01689
G1 X127.299 Y108.102 E0.64265
G1 X127.299 Y107.987 E0.00359
G1 X126.875 Y107.563 E0.01881
G1 X107.227 Y107.563 E0.61605
G1 X107.765 Y107.024 E0.02389
G1 X126.336 Y107.024 E0.58227
G1 X125.797 Y106.486 E0.02389
G1 X108.304 Y106.486 E0.54849
M73 P3 R45
G1 X108.449 Y106.340 E0.00645
G1 X108.622 Y106.340 E0.00540
G1 X108.622 Y106.168 E0.00540
G1 X108.843 Y105.947 E0.00979
G1 X125.259 Y105.947 E0.51471
M73 Q3 S46
G1 X124.720 Y105.408 E0.02389
G1 X109.381 Y105.408 E0.48093
G1 X109.920 Y104.870 E0.02389
G1 X124.181 Y104.870 E0.44715
G1 X123.833 Y104.521 E0.01546
G1 X123.660 Y104.521 E0.00540
G1 X123.660 Y104.349 E0.00540
G1 X123.643 Y104.331 E0.00078
G1 X110.459 Y104.331 E0.41337
G1 X110.997 Y103.792 E0.02389
G1 X123.104 Y103.792 E0.37959
G1 X122.565 Y103.254 E0.02389
G1 X111.536 Y103.254 E0.34581
G1 X112.075 Y102.715 E0.02389
G1 X122.267 Y102.715 E0.31956
M204 S1000
; stop printing object HD_BearingShaft1.stl id:3 copy 0
; printing object HD_BearingShaft1.stl id:1 copy 0
;WIPE_START
G1 F8640.000
G1 X118.975 Y102.715 E-0.76000
;WIPE_END
G1 E-0.04000 F2100.000
G1 Z0.600 F10800.000
G1 X122.267 Y86.815
G1 Z0.200
G1 E0.80000 F2100.000
M204 S500
G1 F1200.000
G1 X112.075 Y86.815 E0.31956
G1 X111.536 Y87.354 E0.02389
G1 X122.565 Y87.354 E0.34581
G1 X123.104 Y87.892 E0.02389
G1 X110.997 Y87.892 E0.37959
G1 X110.459 Y88.431 E0.02389
G1 X123.643 Y88.431 E0.41337
M73 Q3 S45
G1 X123.660 Y88.449 E0.00078
G1 X123.660 Y88.621 E0.00540
G1 X123.833 Y88.621 E0.00540
G1 X124.181 Y88.970 E0.01546
G1 X109.920 Y88.970 E0.44715
G1 X109.381 Y89.508 E0.02389
G1 X124.720 Y89.508 E0.48093
G1 X125.259 Y90.047 E0.02389
G1 X108.843 Y90.047 E0.51471
G1 X108.622 Y90.268 E0.00979
G1 X108.622 Y90.440 E0.00540
G1 X108.449 Y90.440 E0.00540
G1 X108.304 Y90.586 E0.00645
G1 X125.797 Y90.586 E0.54849
G1 X126.336 Y91.124 E0.02389
G1 X107.765 Y91.124 E0.58227
G1 X107.227 Y91.663 E0.02389
G1 X126.875 Y91.663 E0.61605
G1 X127.299 Y92.087 E0.01881
G1 X127.299 Y92.202 E0.00359
G1 X106.803 Y92.202 E0.64265
G1 X106.803 Y92.741 E0.01689
G1 X127.299 Y92.741 E0.64265
G1 X127.299 Y93.279 E0.01689
G1 X106.803 Y93.279 E0.64265
G1 X106.803 Y93.818 E0.01689
G1 X127.299 Y93.818 E0.64265
G1 X127.299 Y94.357 E0.01689
G1 X106.803 Y94.357 E0.64265
G1 X106.803 Y94.895 E0.01689
G1 X127.299 Y94.895 E0.64265
G1 X127.299 Y95.434 E0.01689
G1 X106.803 Y95.434 E0.64265
G1 X106.803 Y95.973 E0.01689
G1 X127.299 Y95.973 E0.64265
G1 X127.299 Y96.511 E0.01689
G1 X106.803 Y96.511 E0.64265
G1 X106.803 Y97.050 E0.01689
G1 X127.299 Y97.050 E0.64265
G1 X127.299 Y97.589 E0.01689
G1 X106.803 Y97.589 E0.64265
G1 X106.803 Y98.127 E0.01689
G1 X127.299 Y98.127 E0.64265
G1 X127.299 Y98.666 E0.01689
G1 X106.803 Y98.666 E0.64265
G1 X106.803 Y99.205 E0.01689
G1 X127.299 Y99.205 E0.64265
M73 P4 R45
M73 Q4 S45
G1 X127.299 Y99.743 E0.01689
G1 X106.803 Y99.743 E0.64265
G1 X106.803 Y100.282 E0.01689
G1 X127.299 Y100.282 E0.64265
G1 X127.299 Y100.821 E0.01689
G1 X106.803 Y100.821 E0.64265
G1 X106.803 Y101.359 E0.01689
G1 X127.299 Y101.359 E0.64265
G1 X127.299 Y101.898 E0.01689
G1 X106.803 Y101.898 E0.64265
G1 X106.803 Y102.013 E0.00359
G1 X107.227 Y102.437 E0.01881
G1 X126.875 Y102.437 E0.61605
G1 X126.336 Y102.976 E0.02389
G1 X107.765 Y102.976 E0.58227
G1 X108.304 Y103.514 E0.02389
G1 X125.797 Y103.514 E0.54849
G1 X125.652 Y103.660 E0.00645
G1 X125.480 Y103.660 E0.00540
G1 X125.480 Y103.832 E0.00540
G1 X125.259 Y104.053 E0.00980
G1 X108.843 Y104.053 E0.51471
G1 X109.381 Y104.592 E0.02389
G1 X124.720 Y104.592 E0.48093
G1 X124.181 Y105.130 E0.02389
G1 X109.920 Y105.130 E0.44715
G1 X110.269 Y105.479 E0.01546
G1 X110.441 Y105.479 E0.00540
G1 X110.441 Y105.651 E0.00540
G1 X110.459 Y105.669 E0.00079
G1 X123.643 Y105.669 E0.41337
G1 X123.104 Y106.208 E0.02389
G1 X110.997 Y106.208 E0.37959
M73 P4 R44
G1 X111.536 Y106.746 E0.02389
G1 X122.565 Y106.746 E0.34581
G1 X122.027 Y107.285 E0.02389
G1 X111.835 Y107.285 E0.31955
M204 S1000
; stop printing object HD_BearingShaft1.stl id:1 copy 0
; printing object HD_BearingShaft1.stl id:0 copy 0
;WIPE_START
G1 F8640.000
G1 X115.126 Y107.285 E-0.76000
;WIPE_END
G1 E-0.04000 F2100.000
G1 Z0.600 F10800.000
G1 X138.165 Y86.815
G1 Z0.200
G1 E0.80000 F2100.000
M204 S500
G1 F1200.000
G1 X127.973 Y86.815 E0.31956
G1 X127.435 Y87.354 E0.02389
G1 X138.464 Y87.354 E0.34581
G1 X139.003 Y87.892 E0.02389
G1 X126.896 Y87.892 E0.37959
G1 X126.357 Y88.431 E0.02389
G1 X139.541 Y88.431 E0.41337
G1 X139.559 Y88.449 E0.00078
G1 X139.559 Y88.621 E0.00540
G1 X139.731 Y88.621 E0.00540
G1 X140.080 Y88.970 E0.01546
G1 X125.819 Y88.970 E0.44715
G1 X125.280 Y89.508 E0.02389
G1 X140.619 Y89.508 E0.48093
G1 X141.157 Y90.047 E0.02389
G1 X124.741 Y90.047 E0.51471
G1 X124.520 Y90.268 E0.00979
G1 X124.520 Y90.440 E0.00540
G1 X124.348 Y90.440 E0.00540
G1 X124.203 Y90.586 E0.00645
G1 X141.696 Y90.586 E0.54849
G1 X142.235 Y91.124 E0.02389
G1 X123.664 Y91.124 E0.58227
G1 X123.125 Y91.663 E0.02389
G1 X142.773 Y91.663 E0.61605
G1 X143.197 Y92.087 E0.01881
G1 X143.197 Y92.202 E0.00359
G1 X122.701 Y92.202 E0.64265
G1 X122.701 Y92.741 E0.01689
G1 X143.197 Y92.741 E0.64265
G1 X143.197 Y93.279 E0.01689
G1 X122.701 Y93.279 E0.64265
G1 X122.701 Y93.818 E0.01689
G1 X143.197 Y93.818 E0.64265
G1 X143.197 Y94.357 E0.01689
G1 X122.701 Y94.357 E0.64265
M73 P5 R44
G1 X122.701 Y94.895 E0.01689
G1 X143.197 Y94.895 E0.64265
M73 Q5 S45
G1 X143.197 Y95.434 E0.01689
G1 X122.701 Y95.434 E0.64265
G1 X122.701 Y95.973 E0.01689
G1 X143.197 Y95.973 E0.64265
G1 X143.197 Y96.511 E0.01689
G1 X122.701 Y96.511 E0.64265
G1 X122.701 Y97.050 E0.01689
G1 X143.197 Y97.050 E0.64265
G1 X143.197 Y97.589 E0.01689
G1 X122.701 Y97.589 E0.64265
G1 X122.701 Y98.127 E0.01689
G1 X143.197 Y98.127 E0.64265
G1 X143.197 Y98.666 E0.01689
G1 X122.701 Y98.666 E0.64265
G1 X122.701 Y99.205 E0.01689
G1 X143.197 Y99.205 E0.64265
G1 X143.197 Y99.743 E0.01689
G1 X122.701 Y99.743 E0.64265
G1 X122.701 Y100.282 E0.01689
G1 X143.197 Y100.282 E0.64265
M73 Q5 S44
G1 X143.197 Y100.821 E0.01689
G1 X122.701 Y100.821 E0.64265
G1 X122.701 Y101.359 E0.01689
G1 X143.197 Y101.359 E0.64265
G1 X143.197 Y101.898 E0.01689
G1 X122.701 Y101.898 E0.64265
G1 X122.701 Y102.013 E0.00359
G1 X123.125 Y102.437 E0.01881
G1 X142.773 Y102.437 E0.61605
G1 X142.235 Y102.976 E0.02389
G1 X123.664 Y102.976 E0.58227
G1 X124.203 Y103.514 E0.02389
G1 X141.696 Y103.514 E0.54849
G1 X141.551 Y103.660 E0.00645
G1 X141.378 Y103.660 E0.00540
G1 X141.378 Y103.832 E0.00540
G1 X141.157 Y104.053 E0.00980
G1 X124.741 Y104.053 E0.51471
G1 X125.280 Y104.592 E0.02389
G1 X140.619 Y104.592 E0.48093
G1 X140.080 Y105.130 E0.02389
G1 X125.819 Y105.130 E0.44715
G1 X126.167 Y105.479 E0.01546
G1 X126.340 Y105.479 E0.00540
G1 X126.340 Y105.651 E0.00540
G1 X126.357 Y105.669 E0.00079
G1 X139.541 Y105.669 E0.41337
G1 X139.002 Y106.208 E0.02389
G1 X126.896 Y106.208 E0.37959
G1 X127.435 Y106.746 E0.02389
G1 X138.464 Y106.746 E0.34581
G1 X137.925 Y107.285 E0.02389
G1 X127.733 Y107.285 E0.31955
M204 S1000
; stop printing object HD_BearingShaft1.stl id:0 copy 0
M106 S84.15
;LAYER_CHANGE
;Z:0.5
;HEIGHT:0.3
;BEFORE_LAYER_CHANGE
G92 E0.0
;0.5


;WIPE_START
G1 F8640.000
G1 X131.025 Y107.285 E-0.76000
;WIPE_END
G1 E-0.04000 F2100.000
G1 Z0.600 F10800.000
;AFTER_LAYER_CHANGE
;0.5
M104 S210 ; set temperature
G1 X145.556 Y107.259
G1 Z0.500
G1 E0.80000 F2100.000
;TYPE:Skirt
G1 F1800.000
G1 X145.574 Y117.829 E0.46880
G1 X145.465 Y118.511 E0.03064
G1 X145.165 Y119.133 E0.03064
G1 X144.481 Y119.991 E0.04867
G1 X139.548 Y124.921 E0.30933
G1 X138.984 Y125.313 E0.03047
G1 X138.331 Y125.527 E0.03047
G1 X111.804 Y125.562 E1.17659
G1 X111.122 Y125.453 E0.03064
G1 X110.500 Y125.152 E0.03064
G1 X110.125 Y124.836 E0.02176
G1 X105.019 Y119.484 E0.32812
G1 X104.655 Y118.932 E0.02930
G1 X104.457 Y118.298 E0.02947
G1 X104.426 Y92.168 E1.15901
G1 X104.535 Y91.489 E0.03047
G1 X104.835 Y90.867 E0.03064
G1 X105.519 Y90.009 E0.04867
G1 X110.446 Y85.084 E0.30900
G1 X110.992 Y84.699 E0.02964
G1 X111.624 Y84.481 E0.02964
G1 X138.169 Y84.438 E1.17741
M73 P6 R44
G1 X139.064 Y84.614 E0.04046
G1 X139.827 Y85.115 E0.04046
G1 X144.984 Y90.519 E0.33133
G1 X145.328 Y91.034 E0.02746
G1 X145.528 Y91.619 E0.02746
G1 X145.556 Y107.199 E0.69104
