; generated by PrusaSlicer 2.3.3+win64 on 2022-02-26 at 00:03:22 UTC

; 

; external perimeters extrusion width = 0.45mm
; perimeters extrusion width = 0.45mm
; infill extrusion width = 0.45mm
; solid infill extrusion width = 0.45mm
; top infill extrusion width = 0.40mm
; first layer extrusion width = 0.42mm

M73 P0 R34
M73 Q0 S34
M201 X1000 Y1000 Z200 E5000 ; sets maximum accelerations, mm/sec^2
M203 X200 Y200 Z12 E120 ; sets maximum feedrates, mm/sec
M204 P1250 R1250 T1250 ; sets acceleration (P, T) and retract acceleration (R), mm/sec^2
M205 X8.00 Y8.00 Z0.40 E4.50 ; sets the jerk limits, mm/sec
M205 S0 T0 ; sets the minimum extruding and travel feed rate, mm/sec
M107
;TYPE:Custom
M862.3 P "MK3S" ; printer model check
M862.1 P0.4 ; nozzle diameter check
M115 U3.10.0 ; tell printer latest fw version
G90 ; use absolute coordinates
M83 ; extruder relative mode
M104 S215 ; set extruder temp
M140 S60 ; set bed temp
M190 S60 ; wait for bed temp
M109 S215 ; wait for extruder temp
G28 W ; home all without mesh bed level
G80 ; mesh bed leveling
G1 Y-3.0 F1000.0 ; go outside print area
G92 E0.0
G1 X60.0 E9.0 F1000.0 ; intro line
G1 X100.0 E12.5 F1000.0 ; intro line
G92 E0.0
M221 S100

; Don't change E values below. Excessive value can damage the printer.
M907 E430 ; set extruder motor current
G21 ; set units to millimeters
G90 ; use absolute coordinates
M83 ; use relative distances for extrusion
M900 K0.05 ; Filament gcode LA 1.5
M900 K30 ; Filament gcode LA 1.0
;LAYER_CHANGE
;Z:0.2
;HEIGHT:0.2
;BEFORE_LAYER_CHANGE
G92 E0.0
;0.2


G1 E-0.80000 F2100.000
G1 Z0.400 F10800.000
;AFTER_LAYER_CHANGE
;0.2
G1 X120.784 Y100.720
G1 Z0.200
G1 E0.80000 F2100.000
M204 S500
;TYPE:Skirt
;WIDTH:0.42
G1 F1200.000
G1 X121.717 Y99.969 E0.03754
G1 X122.627 Y99.481 E0.03237
G1 X123.727 Y99.128 E0.03624
G1 X124.954 Y98.992 E0.03869
G1 X126.119 Y99.097 E0.03667
G1 X127.275 Y99.439 E0.03783
G1 X128.337 Y100.004 E0.03768
G1 X129.264 Y100.768 E0.03768
G1 X130.029 Y101.713 E0.03812
G1 X130.579 Y102.771 E0.03739
G1 X130.912 Y103.930 E0.03783
G1 X131.007 Y105.073 E0.03595
G1 X130.904 Y106.111 E0.03270
G1 X130.563 Y107.267 E0.03779
G1 X130.024 Y108.294 E0.03638
G1 X129.245 Y109.251 E0.03869
G1 X128.345 Y109.991 E0.03653
G1 X127.285 Y110.557 E0.03768
G1 X126.137 Y110.900 E0.03754
G1 X124.968 Y111.008 E0.03682
G1 X123.750 Y110.877 E0.03840
G1 X122.644 Y110.526 E0.03638
G1 X121.595 Y109.949 E0.03754
G1 X120.795 Y109.290 E0.03252
G1 X120.056 Y108.414 E0.03595
G1 X119.472 Y107.353 E0.03797
G1 X119.115 Y106.210 E0.03754
G1 X118.992 Y105.000 E0.03813
G1 X119.111 Y103.809 E0.03753
G1 X119.464 Y102.665 E0.03754
G1 X120.042 Y101.606 E0.03783
G1 X120.746 Y100.766 E0.03436
M204 S1000
G1 X121.033 Y101.007 F10800.000
M204 S500
G1 F1200.000
G1 X121.924 Y100.284 E0.03595
G1 X122.770 Y99.830 E0.03012
G1 X123.805 Y99.497 E0.03409
G1 X124.955 Y99.369 E0.03627
G1 X126.046 Y99.467 E0.03436
G1 X127.134 Y99.789 E0.03559
G1 X128.129 Y100.318 E0.03532
G1 X128.998 Y101.034 E0.03532
G1 X129.714 Y101.920 E0.03573
G1 X130.230 Y102.912 E0.03504
G1 X130.542 Y104.003 E0.03559
G1 X130.630 Y105.074 E0.03368
G1 X130.534 Y106.036 E0.03031
G1 X130.217 Y107.119 E0.03539
G1 X129.713 Y108.082 E0.03409
G1 X128.980 Y108.983 E0.03641
G1 X128.137 Y109.676 E0.03422
G1 X127.144 Y110.207 E0.03532
G1 X126.064 Y110.530 E0.03532
G1 X124.969 Y110.631 E0.03450
G1 X123.827 Y110.508 E0.03600
G1 X122.791 Y110.179 E0.03408
G1 X121.805 Y109.636 E0.03531
G1 X121.063 Y109.025 E0.03012
G1 X120.367 Y108.201 E0.03381
G1 X119.819 Y107.207 E0.03559
G1 X119.485 Y106.136 E0.03518
G1 X119.369 Y105.002 E0.03574
G1 X119.481 Y103.882 E0.03530
G1 X119.812 Y102.810 E0.03518
G1 X120.354 Y101.818 E0.03545
G1 X120.995 Y101.053 E0.03128
M204 S1000
G1 X121.283 Y101.295 F10800.000
M204 S500
G1 F1200.000
G1 X122.134 Y100.597 E0.03451
G1 X122.914 Y100.178 E0.02775
G1 X123.879 Y99.867 E0.03180
G1 X124.956 Y99.746 E0.03397
G1 X125.974 Y99.837 E0.03205
G1 X126.990 Y100.137 E0.03320
G1 X127.918 Y100.631 E0.03295
G1 X128.732 Y101.301 E0.03308
G1 X129.400 Y102.128 E0.03333
G1 X129.882 Y103.058 E0.03282
G1 X130.172 Y104.076 E0.03320
G1 X130.253 Y105.075 E0.03141
G1 X130.165 Y105.961 E0.02793
G1 X129.869 Y106.972 E0.03302
G1 X129.398 Y107.874 E0.03192
G1 X128.715 Y108.715 E0.03397
G1 X127.925 Y109.364 E0.03205
G1 X126.998 Y109.859 E0.03295
G1 X125.995 Y110.159 E0.03282
G1 X124.969 Y110.254 E0.03231
G1 X123.900 Y110.138 E0.03372
G1 X122.934 Y109.830 E0.03179
G1 X122.014 Y109.322 E0.03294
G1 X121.328 Y108.757 E0.02788
G1 X120.679 Y107.988 E0.03154
G1 X120.167 Y107.061 E0.03320
G1 X119.854 Y106.062 E0.03282
G1 X119.746 Y105.000 E0.03349
G1 X119.851 Y103.955 E0.03292
G1 X120.160 Y102.955 E0.03282
G1 X120.666 Y102.029 E0.03308
G1 X121.244 Y101.340 E0.02819
M204 S1000
G1 X121.532 Y101.582 F10800.000
M204 S500
G1 F1200.000
G1 X121.588 Y101.515 E0.00274
G1 X122.350 Y100.906 E0.03059
G1 X123.077 Y100.519 E0.02583
G1 X123.976 Y100.232 E0.02959
G1 X124.970 Y100.123 E0.03134
G1 X125.921 Y100.211 E0.02994
G1 X126.861 Y100.492 E0.03075
G1 X127.722 Y100.953 E0.03065
G1 X128.467 Y101.570 E0.03033
G1 X129.084 Y102.335 E0.03081
G1 X129.533 Y103.201 E0.03059
G1 X129.802 Y104.147 E0.03082
G1 X129.876 Y105.081 E0.02938
G1 X129.792 Y105.904 E0.02592
G1 X129.515 Y106.843 E0.03069
G1 X129.073 Y107.682 E0.02975
G1 X128.438 Y108.459 E0.03146
G1 X127.701 Y109.061 E0.02982
G1 X126.838 Y109.518 E0.03063
G1 X125.915 Y109.790 E0.03016
G1 X124.963 Y109.877 E0.02999
G1 X123.974 Y109.768 E0.03118
G1 X123.074 Y109.480 E0.02963
G1 X122.218 Y109.005 E0.03069
G1 X121.583 Y108.480 E0.02584
G1 X120.978 Y107.759 E0.02951
G1 X120.508 Y106.900 E0.03070
G1 X120.220 Y105.968 E0.03058
G1 X120.123 Y104.995 E0.03065
G1 X120.221 Y104.029 E0.03044
G1 X120.510 Y103.097 E0.03058
G1 X120.980 Y102.238 E0.03070
G1 X121.493 Y101.628 E0.02500
M204 S1000
;WIPE_START
G1 F8640.000
G1 X121.588 Y101.515 E-0.03406
G1 X122.350 Y100.906 E-0.22528
G1 X123.077 Y100.519 E-0.19024
G1 X123.976 Y100.232 E-0.21788
G1 X124.375 Y100.188 E-0.09254
;WIPE_END
G1 E-0.04000 F2100.000
G1 Z0.600 F10800.000
G1 X120.101 Y99.704
G1 Z0.200
G1 E0.80000 F2100.000
M204 S500
G1 F1200.000
G1 X120.593 Y99.291 E0.02012
G1 X121.268 Y98.826 E0.02569
G1 X121.832 Y98.521 E0.02013
G1 X122.587 Y98.201 E0.02569
G1 X123.201 Y98.016 E0.02012
G1 X124.004 Y97.855 E0.02568
G1 X124.640 Y97.797 E0.02003
G1 X125.391 Y97.797 E0.02353
G1 X126.072 Y97.868 E0.02149
G1 X126.751 Y98.002 E0.02168
G1 X127.390 Y98.195 E0.02095
G1 X128.025 Y98.450 E0.02146
G1 X129.167 Y99.110 E0.04135
G1 X129.752 Y99.574 E0.02341
G1 X130.289 Y100.096 E0.02347
G1 X130.732 Y100.621 E0.02155
G1 X131.116 Y101.175 E0.02113
G1 X131.471 Y101.814 E0.02290
G1 X131.760 Y102.482 E0.02284
G1 X131.979 Y103.181 E0.02295
G1 X132.126 Y103.878 E0.02233
G1 X132.196 Y104.521 E0.02030
G1 X132.206 Y105.342 E0.02574
G1 X132.145 Y105.981 E0.02012
G1 X131.990 Y106.785 E0.02567
G1 X131.805 Y107.390 E0.01983
G1 X131.528 Y108.069 E0.02299
G1 X131.198 Y108.689 E0.02205
G1 X130.804 Y109.284 E0.02235
G1 X130.357 Y109.830 E0.02212
G1 X129.871 Y110.320 E0.02163
G1 X129.325 Y110.772 E0.02222
G1 X128.757 Y111.159 E0.02155
G1 X127.572 Y111.741 E0.04139
G1 X126.876 Y111.965 E0.02293
G1 X126.191 Y112.114 E0.02197
G1 X125.434 Y112.200 E0.02390
G1 X124.682 Y112.206 E0.02357
G1 X124.010 Y112.145 E0.02116
G1 X123.348 Y112.022 E0.02110
G1 X122.646 Y111.818 E0.02294
G1 X121.979 Y111.550 E0.02252
G1 X121.395 Y111.247 E0.02063
G1 X120.746 Y110.826 E0.02427
G1 X120.228 Y110.408 E0.02086
G1 X119.729 Y109.924 E0.02180
G1 X119.277 Y109.390 E0.02192
G1 X118.879 Y108.816 E0.02191
G1 X118.539 Y108.207 E0.02186
G1 X118.261 Y107.572 E0.02174
G1 X118.036 Y106.877 E0.02290
G1 X117.877 Y106.147 E0.02342
G1 X117.787 Y104.830 E0.04140
G1 X117.841 Y104.124 E0.02219
G1 X117.957 Y103.440 E0.02175
G1 X118.152 Y102.736 E0.02293
G1 X118.415 Y102.056 E0.02285
G1 X118.748 Y101.404 E0.02295
G1 X119.134 Y100.803 E0.02241
G1 X119.533 Y100.296 E0.02022
G1 X120.060 Y99.747 E0.02386
M204 S1000
G1 X120.332 Y100.007 F10800.000
M204 S500
G1 F1200.000
G1 X120.815 Y99.596 E0.01990
G1 X121.457 Y99.153 E0.02446
G1 X121.988 Y98.864 E0.01896
G1 X122.706 Y98.559 E0.02446
G1 X123.285 Y98.384 E0.01896
G1 X124.049 Y98.229 E0.02445
G1 X124.649 Y98.174 E0.01889
G1 X125.380 Y98.174 E0.02293
G1 X126.024 Y98.242 E0.02029
G1 X126.668 Y98.370 E0.02058
G1 X127.273 Y98.553 E0.01982
G1 X127.872 Y98.795 E0.02025
G1 X128.944 Y99.415 E0.03881
G1 X129.511 Y99.864 E0.02268
G1 X130.007 Y100.346 E0.02170
G1 X130.427 Y100.844 E0.02043
G1 X130.791 Y101.367 E0.01998
G1 X131.128 Y101.972 E0.02173
G1 X131.403 Y102.605 E0.02163
G1 X131.612 Y103.268 E0.02178
G1 X131.752 Y103.929 E0.02118
G1 X131.819 Y104.536 E0.01915
G1 X131.830 Y105.317 E0.02450
G1 X131.773 Y105.919 E0.01896
G1 X131.626 Y106.685 E0.02445
G1 X131.452 Y107.256 E0.01871
G1 X131.191 Y107.900 E0.02182
G1 X130.878 Y108.489 E0.02090
G1 X130.505 Y109.053 E0.02118
G1 X130.082 Y109.571 E0.02098
G1 X129.623 Y110.036 E0.02049
G1 X129.106 Y110.466 E0.02109
G1 X128.556 Y110.840 E0.02085
G1 X127.443 Y111.386 E0.03887
G1 X126.786 Y111.598 E0.02166
G1 X126.139 Y111.741 E0.02078
G1 X125.420 Y111.823 E0.02268
G1 X124.706 Y111.830 E0.02237
G1 X124.070 Y111.772 E0.02005
G1 X123.444 Y111.657 E0.01995
G1 X122.777 Y111.464 E0.02177
G1 X122.144 Y111.211 E0.02137
G1 X121.592 Y110.925 E0.01949
G1 X120.974 Y110.526 E0.02307
G1 X120.484 Y110.131 E0.01973
G1 X120.011 Y109.673 E0.02067
G1 X119.581 Y109.167 E0.02078
G1 X119.203 Y108.624 E0.02076
G1 X118.881 Y108.047 E0.02072
G1 X118.617 Y107.446 E0.02058
G1 X118.402 Y106.788 E0.02171
G1 X118.249 Y106.081 E0.02268
G1 X118.164 Y104.845 E0.03885
G1 X118.214 Y104.178 E0.02095
G1 X118.324 Y103.531 E0.02059
G1 X118.507 Y102.862 E0.02175
G1 X118.755 Y102.218 E0.02164
G1 X119.070 Y101.599 E0.02177
G1 X119.436 Y101.028 E0.02126
G1 X119.812 Y100.550 E0.01906
G1 X120.290 Y100.051 E0.02169
M204 S1000
G1 X120.562 Y100.311 F10800.000
M204 S500
G1 F1200.000
G1 X121.037 Y99.901 E0.01967
G1 X121.646 Y99.479 E0.02323
G1 X122.145 Y99.207 E0.01779
G1 X122.826 Y98.917 E0.02323
G1 X123.369 Y98.751 E0.01779
G1 X124.095 Y98.604 E0.02322
G1 X124.658 Y98.551 E0.01773
G1 X125.370 Y98.551 E0.02234
G1 X125.959 Y98.613 E0.01855
G1 X126.585 Y98.738 E0.02001
G1 X127.155 Y98.911 E0.01869
G1 X127.718 Y99.139 E0.01905
G1 X128.721 Y99.719 E0.03631
G1 X129.255 Y100.141 E0.02136
G1 X129.725 Y100.597 E0.02052
G1 X130.123 Y101.067 E0.01932
G1 X130.467 Y101.560 E0.01883
G1 X130.787 Y102.132 E0.02056
G1 X131.047 Y102.729 E0.02042
G1 X131.246 Y103.355 E0.02060
G1 X131.378 Y103.980 E0.02003
G1 X131.442 Y104.550 E0.01800
G1 X131.453 Y105.292 E0.02327
G1 X131.401 Y105.857 E0.01779
G1 X131.262 Y106.585 E0.02323
G1 X131.099 Y107.123 E0.01760
G1 X130.853 Y107.733 E0.02064
G1 X130.558 Y108.289 E0.01975
G1 X130.207 Y108.822 E0.02001
G1 X129.807 Y109.313 E0.01984
G1 X129.374 Y109.752 E0.01934
G1 X128.886 Y110.159 E0.01994
G1 X128.355 Y110.521 E0.02014
G1 X127.314 Y111.032 E0.03635
G1 X126.695 Y111.232 E0.02039
G1 X126.085 Y111.367 E0.01959
M73 Q1 S34
G1 X125.406 Y111.446 E0.02145
G1 X124.730 Y111.453 E0.02118
G1 X124.129 Y111.400 E0.01894
G1 X123.539 Y111.292 E0.01879
G1 X122.907 Y111.110 E0.02061
G1 X122.309 Y110.872 E0.02021
G1 X121.789 Y110.603 E0.01834
G1 X121.202 Y110.225 E0.02188
G1 X120.739 Y109.854 E0.01861
G1 X120.292 Y109.421 E0.01953
M73 P1 R34
G1 X119.886 Y108.944 E0.01963
G1 X119.518 Y108.416 E0.02017
G1 X119.215 Y107.871 E0.01956
G1 X118.966 Y107.303 E0.01944
G1 X118.764 Y106.681 E0.02053
G1 X118.620 Y106.015 E0.02136
G1 X118.541 Y104.859 E0.03633
G1 X118.587 Y104.232 E0.01971
G1 X118.690 Y103.621 E0.01942
G1 X118.863 Y102.988 E0.02057
G1 X119.096 Y102.380 E0.02043
G1 X119.393 Y101.794 E0.02060
G1 X119.738 Y101.253 E0.02011
G1 X120.091 Y100.804 E0.01791
G1 X120.521 Y100.354 E0.01951
M204 S1000
;WIPE_START
G1 F8640.000
G1 X121.037 Y99.901 E-0.15864
G1 X121.646 Y99.479 E-0.17109
G1 X122.145 Y99.207 E-0.13105
G1 X122.826 Y98.917 E-0.17111
G1 X123.357 Y98.755 E-0.12811
;WIPE_END
G1 E-0.04000 F2100.000
G1 Z0.600 F10800.000
G1 X121.867 Y101.668
G1 Z0.200
G1 E0.80000 F2100.000
M204 S500
G1 F1200.000
G1 X122.156 Y101.419 E0.01195
G1 X122.602 Y101.105 E0.01710
G1 X122.935 Y100.920 E0.01195
G1 X123.435 Y100.702 E0.01710
G1 X123.798 Y100.588 E0.01195
G1 X124.332 Y100.475 E0.01710
G1 X124.710 Y100.436 E0.01192
G1 X125.248 Y100.433 E0.01686
G1 X125.635 Y100.471 E0.01221
G1 X126.152 Y100.573 E0.01650
G1 X126.529 Y100.690 E0.01237
G1 X126.946 Y100.861 E0.01415
G1 X127.612 Y101.245 E0.02409
G1 X127.985 Y101.535 E0.01482
G1 X128.322 Y101.857 E0.01463
G1 X128.608 Y102.190 E0.01375
G1 X128.848 Y102.528 E0.01300
G1 X129.097 Y102.968 E0.01585
G1 X129.267 Y103.353 E0.01320
G1 X129.422 Y103.835 E0.01587
G1 X129.511 Y104.246 E0.01321
G1 X129.558 Y104.634 E0.01224
G1 X129.571 Y105.179 E0.01710
G1 X129.539 Y105.559 E0.01195
G1 X129.441 Y106.096 E0.01710
G1 X129.333 Y106.462 E0.01196
G1 X129.138 Y106.950 E0.01648
G1 X128.950 Y107.304 E0.01257
G1 X128.661 Y107.742 E0.01647
G1 X128.410 Y108.047 E0.01237
G1 X128.103 Y108.360 E0.01375
G1 X127.744 Y108.659 E0.01463
G1 X127.352 Y108.923 E0.01482
G1 X126.662 Y109.261 E0.02409
G1 X126.234 Y109.404 E0.01416
G1 X125.810 Y109.501 E0.01365
G1 X125.326 Y109.562 E0.01529
G1 X124.842 Y109.571 E0.01516
G1 X124.399 Y109.533 E0.01396
G1 X124.009 Y109.465 E0.01240
G1 X123.504 Y109.321 E0.01647
G1 X123.124 Y109.171 E0.01279
G1 X122.764 Y108.989 E0.01267
G1 X122.336 Y108.718 E0.01588
G1 X122.011 Y108.461 E0.01300
G1 X121.693 Y108.159 E0.01376
G1 X121.385 Y107.802 E0.01477
G1 X121.097 Y107.384 E0.01592
G1 X120.888 Y107.002 E0.01364
G1 X120.715 Y106.599 E0.01376
G1 X120.575 Y106.154 E0.01463
G1 X120.479 Y105.691 E0.01482
G1 X120.427 Y104.924 E0.02409
G1 X120.457 Y104.474 E0.01415
G1 X120.523 Y104.065 E0.01300
G1 X120.654 Y103.577 E0.01585
G1 X120.803 Y103.183 E0.01320
G1 X121.030 Y102.731 E0.01586
G1 X121.256 Y102.373 E0.01328
G1 X121.493 Y102.065 E0.01217
G1 X121.826 Y101.711 E0.01523
M204 S1000
G1 X122.100 Y101.968 F10800.000
M204 S500
G1 F1200.000
G1 X122.381 Y101.721 E0.01173
G1 X122.795 Y101.429 E0.01587
G1 X123.095 Y101.261 E0.01078
G1 X123.559 Y101.058 E0.01588
G1 X123.886 Y100.954 E0.01078
G1 X124.382 Y100.849 E0.01587
G1 X124.723 Y100.813 E0.01075
G1 X125.222 Y100.809 E0.01565
G1 X125.572 Y100.843 E0.01102
G1 X126.069 Y100.941 E0.01589
G1 X126.393 Y101.042 E0.01066
G1 X126.792 Y101.205 E0.01349
G1 X127.391 Y101.551 E0.02170
G1 X127.732 Y101.815 E0.01353
G1 X128.043 Y102.110 E0.01343
G1 X128.316 Y102.429 E0.01318
G1 X128.525 Y102.722 E0.01127
G1 X128.764 Y103.146 E0.01525
G1 X128.911 Y103.478 E0.01140
G1 X129.060 Y103.941 E0.01526
G1 X129.138 Y104.301 E0.01155
G1 X129.182 Y104.653 E0.01111
G1 X129.194 Y105.159 E0.01587
G1 X129.166 Y105.502 E0.01078
G1 X129.076 Y106.000 E0.01588
G1 X128.980 Y106.330 E0.01078
G1 X128.791 Y106.800 E0.01588
G1 X128.630 Y107.104 E0.01078
G1 X128.351 Y107.526 E0.01587
G1 X128.135 Y107.789 E0.01066
G1 X127.840 Y108.089 E0.01319
G1 X127.511 Y108.362 E0.01343
G1 X127.153 Y108.603 E0.01353
G1 X126.531 Y108.907 E0.02170
G1 X126.123 Y109.043 E0.01348
G1 X125.753 Y109.128 E0.01190
G1 X125.289 Y109.186 E0.01467
G1 X124.864 Y109.194 E0.01332
G1 X124.438 Y109.158 E0.01340
G1 X124.103 Y109.100 E0.01068
G1 X123.616 Y108.961 E0.01586
G1 X123.286 Y108.831 E0.01112
G1 X122.958 Y108.666 E0.01153
G1 X122.546 Y108.405 E0.01527
G1 X122.264 Y108.182 E0.01127
G1 X121.960 Y107.892 E0.01318
G1 X121.678 Y107.564 E0.01355
G1 X121.413 Y107.178 E0.01468
G1 X121.231 Y106.845 E0.01190
G1 X121.066 Y106.459 E0.01318
G1 X120.937 Y106.050 E0.01343
G1 X120.850 Y105.628 E0.01353
G1 X120.804 Y104.937 E0.02170
G1 X120.833 Y104.508 E0.01348
G1 X120.890 Y104.153 E0.01127
G1 X121.016 Y103.683 E0.01526
G1 X121.144 Y103.343 E0.01140
G1 X121.362 Y102.908 E0.01525
G1 X121.561 Y102.595 E0.01162
G1 X121.775 Y102.316 E0.01104
G1 X122.059 Y102.012 E0.01304
M204 S1000
G1 X122.334 Y102.269 F10800.000
M204 S500
G1 F1200.000
G1 X122.607 Y102.023 E0.01152
G1 X122.988 Y101.753 E0.01466
G1 X123.255 Y101.603 E0.00961
G1 X123.683 Y101.414 E0.01466
G1 X123.975 Y101.321 E0.00960
G1 X124.432 Y101.223 E0.01466
