; Generated with: REALvisionCore 20.5.3
; G-Code generated by Fusion3 REACTOR Version: 1.1.2
; G-Code flavour: Fusion3
; Build time: 2:25:32
; Filament length: 25180mm(25.18 meter(s))
; layerHeight, 0.2
; Estimated weight: 72 gram(s)
; Printer name: Fusion3 F400-S (.4)
; Material Profile: PLA_Hatchbox_PLA
M220 S100 ; reset speed multiplier
M190 S55
M104 S200 T0
G90
M83
G28
G32 ; Probe the bed
; Repositioning
G1 Z10 F9900
; Repositioning
G1 X0 F21000
G1 Y0
M190 S55
M109 S200 T0
; reset filament monitor
M42 P63 S0
G4 P100
G4 P50
M42 P63 S1
G1 Z10.0 F2000  ; move up
G1 E30.0 F500  ; prime extruder
G1 X20 Y15 F9000  ; move back
G1 Z0 F1000  ; move down to begin wipe
G1 X150 E4.0 F10000  ; wipe print head (extrude material while we do this)
G92 E0.0  ; reset e count
T0
; Print start
   ; Repositioning
G1 X212.5 Y130.9861221 F21000
; Repositioning
G1 Z0.03 F9900
               ; New Layer
; Repositioning
G1 Z0.199
; Contour
G1 X142.5 E2.7432062 F1200
G1 Y208.4791151 E3.0368465
G1 X144.0119339 Y210.8912652 E0.1115632
G1 X144.8576381 Y212.1341492 E0.0589132
G1 X145.7494476 Y213.3443754 E0.0589131
G1 X146.686103 Y214.5202395 E0.0589132
G1 X147.6662805 Y215.6600755 E0.0589131
G1 X148.6885951 Y216.762276 E0.0589132
G1 X149.7516 Y217.8252809 E0.0589129
G1 X150.853802 Y218.8475992 E0.0589133
G1 X151.9936426 Y219.8277786 E0.0589133
G1 X153.1695046 Y220.764432 E0.0589131
G1 X154.3797307 Y221.6562398 E0.058913
G1 X155.6226125 Y222.501944 E0.0589131
G1 X158.0347667 Y224.0138779 E0.1115634
G1 X196.9652333 E1.5256328
G1 X199.3773875 Y222.501944 E0.1115634
G1 X200.6202693 Y221.6562398 E0.0589131
G1 X201.8304954 Y220.764432 E0.0589131
G1 X203.0063574 Y219.8277786 E0.058913
G1 X204.146198 Y218.8475992 E0.0589134
G1 X205.2484 Y217.8252809 E0.0589132
G1 X206.3114049 Y216.762276 E0.058913
G1 X207.3337195 Y215.6600755 E0.0589131
G1 X208.313897 Y214.5202395 E0.0589131
G1 X209.2505524 Y213.3443754 E0.0589132
G1 X210.1423619 Y212.1341492 E0.0589131
G1 X210.9880661 Y210.8912652 E0.0589132
G1 X212.5 Y208.4791151 E0.1115633
G1 Y130.9861221 E3.0368465
G1 E-4.25 F24000
G92 E0
; Repositioning with retraction
G1 X207.275 Y136.2111221 F1800
G1 E4.3 F24000
G92 E0
; Contour
G1 X147.725 E2.3336847 F1200
G1 Y206.9769489 E2.7732179
G1 X148.3869888 Y208.0330906 E0.0488471
G1 X149.122206 Y209.1135979 E0.0512164
G1 X149.8975041 Y210.165713 E0.0512164
G1 X150.7117899 Y211.187956 E0.0512164
G1 X151.563911 Y212.1788769 E0.0512164
G1 X152.4526661 Y213.1370811 E0.0512165
G1 X153.3767968 Y214.0612118 E0.0512163
G1 X154.335001 Y214.9499688 E0.0512166
G1 X155.3259237 Y215.8020898 E0.0512164
G1 X156.3481647 Y216.6163736 E0.0512163
G1 X157.4002818 Y217.3916719 E0.0512164
G1 X158.4807873 Y218.126889 E0.0512164
G1 X159.5369308 Y218.7888779 E0.0488472
G1 X195.4630692 E1.4078972
G1 X196.5192127 Y218.126889 E0.0488472
G1 X197.5997182 Y217.3916719 E0.0512164
G1 X198.6518353 Y216.6163736 E0.0512164
G1 X199.6740763 Y215.8020898 E0.0512164
G1 X200.664999 Y214.9499688 E0.0512164
G1 X201.6232032 Y214.0612118 E0.0512165
G1 X202.5473339 Y213.1370811 E0.0512164
G1 X203.436089 Y212.1788769 E0.0512164
G1 X204.2882101 Y211.187956 E0.0512164
G1 X205.1024959 Y210.165713 E0.0512165
G1 X205.877794 Y209.1135979 E0.0512163
G1 X206.6130112 Y208.0330906 E0.0512165
G1 X207.275 Y206.9769489 E0.0488471
G1 Y136.2111221 E2.7732179
G92 E0
; Repositioning
G1 X206.87 Y136.6161221 F1800
; Contour
G1 X148.13 E2.3019419 F1200
G1 Y206.8605131 E2.7527835
G1 X148.7261079 Y207.8115479 E0.0439858
G1 X149.452761 Y208.8794691 E0.0506199
G1 X150.2190282 Y209.9193287 E0.0506198
G1 X151.0238288 Y210.9296641 E0.0506198
G1 X151.866024 Y211.9090423 E0.0506198
G1 X152.7444266 Y212.8560852 E0.0506199
G1 X153.6577929 Y213.7694515 E0.0506198
G1 X154.6048356 Y214.6478558 E0.0506199
G1 X155.5842154 Y215.4900507 E0.0506198
G1 X156.5945489 Y216.2948495 E0.0506198
G1 X157.6344107 Y217.0611169 E0.0506198
G1 X158.70233 Y217.78777 E0.0506198
G1 X159.6533664 Y218.3838779 E0.043986
G1 X195.3466336 E1.3987712
G1 X196.29767 Y217.78777 E0.043986
G1 X197.3655893 Y217.0611169 E0.0506198
G1 X198.4054511 Y216.2948495 E0.0506198
G1 X199.4157846 Y215.4900507 E0.0506198
G1 X200.3951644 Y214.6478558 E0.0506198
G1 X201.3422071 Y213.7694515 E0.0506199
G1 X202.2555734 Y212.8560852 E0.0506198
G1 X203.133976 Y211.9090423 E0.0506199
G1 X203.9761712 Y210.9296641 E0.0506198
G1 X204.7809718 Y209.9193287 E0.0506198
G1 X205.547239 Y208.8794691 E0.0506198
G1 X206.2738921 Y207.8115479 E0.0506199
G1 X206.87 Y206.8605131 E0.0439858
G1 Y136.6161221 E2.7527836
G1 E-4.25 F24000
G92 E0
; Repositioning with retraction
G1 X185.4286679 Y174.6002878 F1800
G1 X185.6750451 Y174.8542853
G1 E4.3 F24000
G92 E0
; Contour
G1 X184.8608718 Y174.4144606 E0.0362643 F1200
G1 X184.0231194 Y174.0214018 E0.0362643
G1 X183.1644714 Y173.6763688 E0.0362643
G1 X182.2876785 Y173.3804665 E0.0362644
G1 X181.3955496 Y173.1346426 E0.0362643
G1 X180.4909415 Y172.9396845 E0.0362643
G1 X179.5767529 Y172.796217 E0.0362643
G1 X178.6559115 Y172.7046999 E0.0362643
G1 X177.7313676 Y172.6654258 E0.0362643
G1 X176.8060826 Y172.6785207 E0.0362643
G1 X175.8830203 Y172.7439422 E0.0362643
G1 X174.9651375 Y172.8614819 E0.0362644
G1 X174.0553749 Y173.0307626 E0.0362643
G1 X173.1566466 Y173.2512418 E0.0362643
G1 X172.2718311 Y173.5222133 E0.0362643
G1 X171.4037632 Y173.8428095 E0.0362643
G1 X170.5552232 Y174.2120031 E0.0362643
G1 X169.7289291 Y174.6286114 E0.0362644
G1 X168.9275282 Y175.0913006 E0.0362643
G1 X168.1535878 Y175.5985876 E0.0362643
G1 X167.4095872 Y176.1488481 E0.0362643
G1 X166.6979092 Y176.7403187 E0.0362643
G1 X166.0208328 Y177.3711056 E0.0362643
G1 X165.3805281 Y178.0391877 E0.0362643
G1 X164.7790449 Y178.742425 E0.0362644
G1 X164.2183115 Y179.478565 E0.0362643
G1 X163.7001236 Y180.2452495 E0.0362643
G1 X163.2261406 Y181.0400223 E0.0362643
G1 X162.7978806 Y181.860338 E0.0362643
G1 X162.4167166 Y182.7035686 E0.0362643
G1 X162.0838691 Y183.5670128 E0.0362643
G1 X161.8004038 Y184.4479052 E0.0362643
G1 X161.5672285 Y185.3434239 E0.0362644
G1 X161.3850907 Y186.2507002 E0.0362643
G1 X161.2545745 Y187.1668279 E0.0362643
G1 X161.1760978 Y188.0888719 E0.0362643
G1 X161.1499098 Y189.0138788 E0.0362643
G1 X161.1760978 Y189.9388858 E0.0362643
G1 X161.2545745 Y190.8609297 E0.0362643
G1 X161.3850907 Y191.7770569 E0.0362643
G1 X161.5672285 Y192.6843333 E0.0362644
G1 X161.8004038 Y193.5798519 E0.0362643
G1 X162.0838691 Y194.4607438 E0.0362643
G1 X162.4167166 Y195.3241895 E0.0362643
G1 X162.7978806 Y196.1674194 E0.0362643
G1 X163.2261406 Y196.9877356 E0.0362644
G1 X163.7001236 Y197.7825077 E0.0362642
G1 X164.2183115 Y198.5491928 E0.0362644
G1 X164.7790449 Y199.2853328 E0.0362643
G1 X165.3805281 Y199.9885701 E0.0362643
G1 X166.0208329 Y200.6566515 E0.0362643
G1 X166.6979092 Y201.2874382 E0.0362643
G1 X167.4095872 Y201.8789091 E0.0362643
G1 X168.1535878 Y202.4291691 E0.0362643
G1 X168.9275282 Y202.9364561 E0.0362643
G1 X169.728929 Y203.3991457 E0.0362644
G1 X170.5552231 Y203.8157546 E0.0362643
G1 X171.4037631 Y204.1849481 E0.0362643
G1 X172.2718311 Y204.5055449 E0.0362643
G1 X173.1566467 Y204.7765159 E0.0362643
G1 X174.055375 Y204.9969946 E0.0362643
G1 X174.9651376 Y205.1662753 E0.0362644
G1 X175.8830202 Y205.2838145 E0.0362643
G1 X176.8060825 Y205.3492369 E0.0362643
G1 X177.7313677 Y205.3623319 E0.0362643
G1 X178.6559114 Y205.3230567 E0.0362643
G1 X179.5767528 Y205.2315411 E0.0362643
G1 X180.4909415 Y205.0880731 E0.0362643
G1 X181.3955495 Y204.8931151 E0.0362644
G1 X182.2876786 Y204.6472916 E0.0362643
G1 X183.1644715 Y204.3513878 E0.0362643
G1 X184.0231194 Y204.0063554 E0.0362643
G1 X184.8608717 Y203.6132966 E0.0362643
G1 X185.675045 Y203.1734724 E0.0362643
G1 X186.463031 Y202.6882906 E0.0362643
G1 X187.2223061 Y202.1593043 E0.0362644
G1 X187.9504374 Y201.5882097 E0.0362643
G1 X188.6450926 Y200.9768362 E0.0362643
G1 X189.3040476 Y200.3271411 E0.0362643
G1 X189.9251897 Y199.641207 E0.0362643
G1 X190.5065304 Y198.9212294 E0.0362643
G1 X191.0462077 Y198.1695171 E0.0362643
G1 X191.5424914 Y197.388476 E0.0362643
G1 X191.9937937 Y196.5806071 E0.0362644
G1 X192.3986682 Y195.7485014 E0.0362643
G1 X192.755817 Y194.8948213 E0.0362643
G1 X193.0640972 Y194.0223044 E0.0362643
G1 X193.3225206 Y193.1337422 E0.0362643
G1 X193.5302602 Y192.2319846 E0.0362643
G1 X193.68665 Y191.3199169 E0.0362644
G1 X193.7911891 Y190.4004633 E0.0362643
G1 X193.8435417 Y189.4765674 E0.0362643
G1 Y188.5511903 E0.0362643
G1 X193.7911891 Y187.6272944 E0.0362643
G1 X193.68665 Y186.7078403 E0.0362643
G1 X193.5302602 Y185.795773 E0.0362643
G1 X193.3225206 Y184.8940145 E0.0362644
G1 X193.0640972 Y184.0054533 E0.0362643
G1 X192.755817 Y183.1329353 E0.0362643
G1 X192.3986682 Y182.2792562 E0.0362643
G1 X191.9937937 Y181.4471498 E0.0362643
G1 X191.5424914 Y180.6392819 E0.0362643
G1 X191.0462077 Y179.8582405 E0.0362643
G1 X190.5065304 Y179.1065272 E0.0362643
G1 X189.9251897 Y178.3865502 E0.0362644
G1 X189.3040476 Y177.7006157 E0.0362643
G1 X188.6450926 Y177.0509211 E0.0362643
G1 X187.9504374 Y176.4395475 E0.0362643
G1 X187.222306 Y175.868453 E0.0362643
G1 X186.4630309 Y175.3394675 E0.0362643
G1 X185.6750451 Y174.8542853 E0.0362643
G92 E0
; Repositioning
G1 X185.4286679 Y174.6002878 F1800
G1 X185.8776262 Y174.5034045
; Contour
G1 X185.0432774 Y174.0526808 E0.037163 F1200
G1 X184.1847651 Y173.6498818 E0.0371629
G1 X183.3048394 Y173.2962987 E0.037163
G1 X182.4063192 Y172.9930639 E0.0371629
G1 X181.492083 Y172.7411483 E0.037163
G1 X180.5650583 Y172.5413591 E0.037163
G1 X179.6282157 Y172.3943364 E0.0371629
G1 X178.6845554 Y172.3005515 E0.037163
G1 X177.737101 Y172.2603041 E0.0371629
G1 X176.7888871 Y172.2737235 E0.037163
G1 X175.8429509 Y172.3407662 E0.0371629
G1 X174.9023225 Y172.4612185 E0.037163
G1 X173.9700156 Y172.6346941 E0.037163
G1 X173.0490165 Y172.8606369 E0.0371629
G1 X172.1422748 Y173.1383231 E0.037163
G1 X171.2526958 Y173.4668639 E0.0371629
G1 X170.3831287 Y173.8452062 E0.037163
G1 X169.5363587 Y174.2721383 E0.037163
G1 X168.7150987 Y174.7462931 E0.0371629
G1 X167.9219796 Y175.266151 E0.037163
G1 X167.1595424 Y175.8300471 E0.0371629
G1 X166.4302287 Y176.4361746 E0.037163
G1 X165.7363741 Y177.0825926 E0.037163
G1 X165.0802024 Y177.7672301 E0.0371629
G1 X164.4638143 Y178.4878939 E0.037163
G1 X163.8891855 Y179.2422759 E0.0371629
G1 X163.3581567 Y180.0279591 E0.037163
G1 X162.8724283 Y180.8424266 E0.0371629
G1 X162.4335557 Y181.6830701 E0.037163
G1 X162.0429463 Y182.5471966 E0.037163
G1 X161.7018507 Y183.4320372 E0.0371629
G1 X161.411361 Y184.3347584 E0.037163
G1 X161.1724076 Y185.2524683 E0.0371629
G1 X160.9857563 Y186.1822275 E0.037163
G1 X160.8520059 Y187.1210575 E0.037163
G1 X160.7715845 Y188.0659498 E0.0371629
G1 X160.7447476 Y189.0138788 E0.037163
G1 X160.7715845 Y189.9618079 E0.0371629
G1 X160.8520059 Y190.9067002 E0.037163
G1 X160.9857563 Y191.8455297 E0.0371629
G1 X161.1724076 Y192.7752889 E0.037163
G1 X161.411361 Y193.6929988 E0.037163
G1 X161.7018507 Y194.5957193 E0.0371629
G1 X162.0429463 Y195.4805615 E0.037163
G1 X162.4335558 Y196.3446873 E0.037163
G1 X162.8724283 Y197.1853313 E0.0371629
G1 X163.3581567 Y197.9997981 E0.037163
G1 X163.8891854 Y198.7854818 E0.0371629
G1 X164.4638143 Y199.5398639 E0.037163
G1 X165.0802025 Y200.2605278 E0.037163
G1 X165.7363743 Y200.9451645 E0.0371629
G1 X166.4302287 Y201.5915823 E0.037163
G1 X167.1595424 Y202.1977101 E0.0371629
G1 X167.9219797 Y202.7616058 E0.037163
G1 X168.7150986 Y203.2814635 E0.0371629
G1 X169.5363584 Y203.7556187 E0.037163
G1 X170.3831286 Y204.1825514 E0.037163
G1 X171.2526956 Y204.5608937 E0.0371629
G1 X172.1422748 Y204.889435 E0.037163
G1 X173.0490168 Y205.1671209 E0.037163
G1 X173.9700157 Y205.3930631 E0.0371629
G1 X174.9023226 Y205.5665386 E0.037163
G1 X175.8429507 Y205.6869905 E0.0371629
G1 X176.7888868 Y205.7540341 E0.037163
G1 X177.7371013 Y205.7674536 E0.037163
G1 X178.6845552 Y205.7272052 E0.0371629
G1 X179.6282154 Y205.6334218 E0.0371629
G1 X180.5650585 Y205.4863985 E0.037163
G1 X181.4920829 Y205.2866094 E0.037163
G1 X182.4063195 Y205.0346942 E0.0371629
G1 X183.3048397 Y204.7314579 E0.037163
G1 X184.184765 Y204.3778755 E0.037163
G1 X185.0432772 Y203.9750764 E0.0371629
G1 X185.8776259 Y203.5243533 E0.037163
G1 X186.6851387 Y203.0271484 E0.0371629
G1 X187.4632291 Y202.4850535 E0.037163
G1 X188.2094038 Y201.899807 E0.037163
G1 X188.9212728 Y201.2732835 E0.0371629
G1 X189.596557 Y200.6074886 E0.037163
G1 X190.2330913 Y199.9045567 E0.0371629
G1 X190.8288378 Y199.1667379 E0.037163
G1 X191.3818885 Y198.3963979 E0.0371629
G1 X191.8904705 Y197.596002 E0.037163
G1 X192.3529561 Y196.768114 E0.037163
G1 X192.7678636 Y195.9153883 E0.0371629
G1 X193.1338627 Y195.0405536 E0.037163
G1 X193.4497823 Y194.1464153 E0.0371629
G1 X193.7146094 Y193.2358342 E0.037163
G1 X193.927497 Y192.3117308 E0.0371629
G1 X194.0877622 Y191.3770616 E0.037163
G1 X194.1948917 Y190.4348233 E0.037163
G1 X194.2485417 Y189.4880329 E0.037163
G1 Y188.5397248 E0.0371629
G1 X194.1948917 Y187.5929343 E0.0371629
G1 X194.0877622 Y186.6506956 E0.037163
G1 X193.927497 Y185.7160269 E0.037163
G1 X193.7146094 Y184.7919224 E0.037163
G1 X193.4497823 Y183.8813424 E0.0371629
G1 X193.1338627 Y182.9872031 E0.037163
G1 X192.7678636 Y182.1123693 E0.0371629
G1 X192.3529561 Y181.2596429 E0.037163
G1 X191.8904704 Y180.4317559 E0.0371629
G1 X191.3818886 Y179.6313599 E0.037163
G1 X190.8288378 Y178.8610187 E0.037163
G1 X190.2330913 Y178.1232005 E0.0371629
G1 X189.596557 Y177.4202682 E0.037163
G1 X188.9212727 Y176.7544739 E0.0371629
G1 X188.2094038 Y176.1279502 E0.037163
G1 X187.4632289 Y175.5427037 E0.037163
G1 X186.6851387 Y175.0006097 E0.0371629
G1 X185.8776262 Y174.5034045 E0.037163
G1 E-4.25 F24000
G92 E0
; Repositioning with retraction
G1 X189.6635668 Y176.6657803 F1800
G1 X190.2545672 Y177.3330365
G1 X190.8071421 Y178.0346512
G1 X191.2098377 Y178.8901633
G1 E4.3 F24000
G92 E0
; Infill
G1 X206.577499 Y194.2578246 E0.8527859 F1200
G1 Y194.8950366 E0.0250035
G1 X192.3663886 Y180.6839262 E0.7886063
G1 X193.0320564 Y181.9868058 E0.0574097
G1 X206.577499 Y195.5322484 E0.7516669
G1 Y196.1694604 E0.0250035
G1 X193.4707704 Y183.0627317 E0.7273217
G1 X193.7963292 Y184.0255024 E0.0398795
G1 X206.577499 Y196.8066722 E0.7092557
G1 Y197.4438841 E0.0250035
G1 X194.0414822 Y184.9078673 E0.6956516
G1 X194.2267164 Y185.7303135 E0.0330803
G1 X206.577499 Y198.0810961 E0.6853725
G1 Y198.7183079 E0.0250035
G1 X194.3585894 Y186.4993983 E0.6780546
G1 X194.4475039 Y187.2255248 E0.0287053
G1 X206.577499 Y199.3555199 E0.6731205
G1 Y199.9927319 E0.0250035
G1 X194.506493 Y187.9217258 E0.6698471
G1 X194.5410427 Y188.5934874 E0.0263941
G1 X206.577499 Y200.6299437 E0.6679298
G1 Y201.2671556 E0.0250035
G1 X194.5410427 Y189.2306994 E0.6679299
G1 X194.5211153 Y189.8479839 E0.0242342
G1 X206.577499 Y201.9043676 E0.6690357
G1 Y202.5415794 E0.0250035
G1 X194.4869439 Y190.4510243 E0.6709319
G1 X194.4223324 Y191.0236247 E0.0226108
G1 X206.577499 Y203.1787914 E0.6745174
G1 Y203.8160034 E0.0250035
G1 X194.3485287 Y191.5870331 E0.6786129
G1 X194.2552602 Y192.1309764 E0.0216552
G1 X206.577499 Y204.4532152 E0.6837886
G1 Y205.0904271 E0.0250035
G1 X194.1473612 Y192.6602893 E0.6897761
G1 X194.0280511 Y193.1781912 E0.0208543
G1 X206.577499 Y205.7276391 E0.6963969
G1 Y206.3648509 E0.0250035
G1 X193.8906367 Y193.6779886 E0.7040223
G1 X193.7470686 Y194.1716325 E0.0201726
G1 X206.4905598 Y206.9151237 E0.7071648
G1 X206.2450446 Y207.3068203 E0.0181395
G1 X193.5836812 Y194.6454569 E0.7026073
G1 X193.4173191 Y195.1163068 E0.019595
G1 X205.9980301 Y207.6970177 E0.6981318
G1 X205.7400123 Y208.0762119 E0.017997
G1 X193.2307183 Y195.5669179 E0.6941686
G1 X193.0427649 Y196.0161763 E0.019109
G1 X205.4819946 Y208.4554061 E0.6902807
G1 X205.2199389 Y208.8305623 E0.0179565
G1 X192.8351055 Y196.445729 E0.6872621
G1 X192.6265405 Y196.8743758 E0.0187049
G1 X204.9495954 Y209.1974308 E0.6838339
G1 X204.679252 Y209.5642992 E0.0178818
G1 X192.3995043 Y197.2845515 E0.6814307
G1 X192.1711198 Y197.6933789 E0.0183753
G1 X204.4026049 Y209.924864 E0.6787525
G1 X204.1200758 Y210.279547 E0.0177931
G1 X191.9260064 Y198.0854775 E0.6766762
G1 X191.6784281 Y198.4751111 E0.0181142
