; generated by PrusaSlicer 2.3.3+win64 on 2022-01-16 at 03:29:34 UTC

; 

; external perimeters extrusion width = 0.45mm
; perimeters extrusion width = 0.45mm
; infill extrusion width = 0.45mm
; solid infill extrusion width = 0.45mm
; top infill extrusion width = 0.40mm
; support material extrusion width = 0.35mm
; first layer extrusion width = 0.42mm

M73 P0 R111
M73 Q0 S112
M201 X1000 Y1000 Z200 E5000 ; sets maximum accelerations, mm/sec^2
M203 X200 Y200 Z12 E120 ; sets maximum feedrates, mm/sec
M204 P1250 R1250 T1250 ; sets acceleration (P, T) and retract acceleration (R), mm/sec^2
M205 X8.00 Y8.00 Z0.40 E4.50 ; sets the jerk limits, mm/sec
M205 S0 T0 ; sets the minimum extruding and travel feed rate, mm/sec
M107
;TYPE:Custom
M862.3 P "MK3S" ; printer model check
M862.1 P0.4 ; nozzle diameter check
M115 U3.10.0 ; tell printer latest fw version
G90 ; use absolute coordinates
M83 ; extruder relative mode
M104 S215 ; set extruder temp
M140 S60 ; set bed temp
M190 S60 ; wait for bed temp
M109 S215 ; wait for extruder temp
G28 W ; home all without mesh bed level
G80 ; mesh bed leveling
G1 Y-3.0 F1000.0 ; go outside print area
G92 E0.0
G1 X60.0 E9.0 F1000.0 ; intro line
M73 P0 R110
G1 X100.0 E12.5 F1000.0 ; intro line
G92 E0.0
M221 S95

; Don't change E values below. Excessive value can damage the printer.

M907 E538 ; set extruder motor current
G21 ; set units to millimeters
G90 ; use absolute coordinates
M83 ; use relative distances for extrusion
M900 K0.05 ; Filament gcode LA 1.5
M900 K30 ; Filament gcode LA 1.0
;LAYER_CHANGE
;Z:0.2
;HEIGHT:0.2
;BEFORE_LAYER_CHANGE
G92 E0.0
;0.2


G1 E-0.80000 F2100.000
G1 Z0.400 F10800.000
;AFTER_LAYER_CHANGE
;0.2
G1 X94.881 Y75.795
G1 Z0.200
G1 E0.80000 F2100.000
M204 S1000
;TYPE:Skirt
;WIDTH:0.42
G1 F1200.000
G1 X95.208 Y75.213 E0.02095
G1 X95.574 Y74.831 E0.01657
G1 X96.018 Y74.538 E0.01668
G1 X96.513 Y74.353 E0.01657
G1 X97.040 Y74.281 E0.01668
G1 X107.385 Y74.123 E0.32440
G1 X142.609 Y74.123 E1.10441
G1 X153.289 Y74.311 E0.33491
G1 X153.971 Y74.533 E0.02249
G1 X154.556 Y74.948 E0.02249
G1 X154.990 Y75.518 E0.02249
G1 X155.235 Y76.193 E0.02249
G1 X155.877 Y87.362 E0.35079
G1 X155.877 Y122.624 E1.10562
G1 X155.272 Y133.722 E0.34848
G1 X155.118 Y134.376 E0.02107
G1 X154.791 Y134.958 E0.02095
G1 X154.416 Y135.347 E0.01692
G1 X153.963 Y135.641 E0.01692
G1 X153.456 Y135.825 E0.01692
G1 X152.920 Y135.889 E0.01692
G1 X97.077 Y135.889 E1.75091
G1 X96.326 Y135.761 E0.02390
G1 X95.650 Y135.399 E0.02402
G1 X95.031 Y134.690 E0.02954
G1 X94.736 Y133.795 E0.02954
G1 X94.123 Y122.621 E0.35088
G1 X94.124 Y87.342 E1.10615
G1 X94.728 Y76.446 E0.34216
G1 X94.867 Y75.854 E0.01907
; printing object Gear_Cover.stl id:0 copy 0
;WIPE_START
G1 F8640.000
G1 X95.208 Y75.213 E-0.16763
G1 X95.574 Y74.831 E-0.12200
G1 X96.018 Y74.538 E-0.12287
G1 X96.513 Y74.353 E-0.12200
G1 X97.040 Y74.281 E-0.12287
G1 X97.485 Y74.274 E-0.10262
;WIPE_END
G1 E-0.04000 F2100.000
G1 Z0.600 F10800.000
G1 X99.646 Y79.484
G1 Z0.200
G1 E0.80000 F2100.000
;TYPE:Support material interface
;WIDTH:0.35
G1 F1200.000
G1 X99.646 Y82.836 E0.08560
G1 X100.153 Y82.265 E0.01950
G1 X100.153 Y79.622 E0.06749
G1 X100.660 Y79.622 E0.01295
G1 X100.660 Y81.917 E0.05860
G1 X101.086 Y82.212 E0.01322
G1 X100.858 Y82.707 E0.01390
G1 X100.738 Y83.120 E0.01100
G1 X100.687 Y83.425 E0.00789
G1 X100.666 Y83.733 E0.00788
G1 X100.702 Y84.236 E0.01288
G1 X101.167 Y84.236 E0.01188
G1 X101.167 Y79.622 E0.11782
G1 X101.674 Y79.622 E0.01295
G1 X101.674 Y84.374 E0.12135
G1 X100.867 Y85.221 F10800.000
;TYPE:Support material
;WIDTH:0.42
G1 F1200.000
G1 X100.867 Y84.578 E0.02016
G1 X101.621 Y84.578 E0.02365
G1 X101.621 Y85.982 E0.04401
G1 X101.804 Y86.151 E0.00780
G1 X102.047 Y86.335 E0.00956
G1 X102.375 Y86.528 E0.01194
G1 X102.375 Y82.271 E0.13346
G1 X103.129 Y82.271 E0.02365
G1 X103.129 Y86.800 E0.14201
G1 X103.465 Y86.856 E0.01065
G1 X103.884 Y86.868 E0.01314
G1 X103.884 Y82.271 E0.14412
G1 X104.578 Y82.271 E0.02179
G1 X104.578 Y80.807 E0.04593
G1 X104.638 Y80.820 E0.00191
G1 X104.638 Y86.752 E0.18597
G1 X104.960 Y86.641 E0.01067
G1 X105.392 Y86.418 E0.01525
G1 X105.392 Y81.155 E0.16504
G1 X105.715 Y81.378 E0.01232
G1 X105.944 Y81.580 E0.00957
G1 X106.146 Y81.798 E0.00933
G1 X106.146 Y86.026 E0.13257
;WIPE_START
G1 F8640.000
G1 X106.146 Y82.735 E-0.76000
;WIPE_END
G1 E-0.04000 F2100.000
G1 Z0.600 F10800.000
G1 X104.210 Y82.067
G1 Z0.200
G1 E0.80000 F2100.000
;TYPE:Support material interface
;WIDTH:0.35
G1 F1200.000
G1 X104.210 Y80.698 E0.03496
G1 X104.042 Y80.676 E0.00433
G1 X103.703 Y80.668 E0.00865
G1 X103.703 Y81.929 E0.03220
G1 X103.196 Y81.929 E0.01295
G1 X103.196 Y80.725 E0.03075
G1 X102.689 Y80.866 E0.01344
G1 X102.689 Y81.929 E0.02715
G1 X102.181 Y81.929 E0.01295
G1 X102.181 Y81.042 E0.02266
G1 X101.840 Y80.548 E0.01532
G1 X102.181 Y80.230 E0.01192
G1 X102.181 Y79.622 E0.01553
G1 X102.689 Y79.622 E0.01295
G1 X102.689 Y79.957 E0.00855
G1 X102.375 Y80.286 F10800.000
;TYPE:Support material
;WIDTH:0.42
G1 F1200.000
G1 X102.375 Y80.813 E0.01651
;WIPE_START
G1 F8640.000
G1 X102.375 Y80.286 E-0.12157
;WIPE_END
G1 E-0.67843 F2100.000
G1 Z0.600 F10800.000
G1 X105.392 Y78.035
G1 Z0.200
G1 E0.80000 F2100.000
G1 F1200.000
G1 X105.392 Y76.657 E0.04319
G1 X104.638 Y76.657 E0.02365
G1 X104.638 Y78.385 E0.05419
G1 X103.884 Y78.980 E0.03011
G1 X103.884 Y76.657 E0.07282
G1 X103.129 Y76.657 E0.02365
G1 X103.129 Y79.280 E0.08224
G1 X102.375 Y79.280 E0.02365
G1 X102.375 Y76.657 E0.08224
G1 X101.621 Y76.657 E0.02365
G1 X101.621 Y79.280 E0.08224
G1 X100.867 Y79.280 E0.02365
G1 X100.867 Y76.657 E0.08224
G1 X100.113 Y76.657 E0.02365
G1 X100.113 Y79.280 E0.08224
G1 X99.359 Y79.280 E0.02365
G1 X99.359 Y76.657 E0.08224
G1 X98.604 Y76.657 E0.02365
G1 X98.604 Y84.354 E0.24132
G1 X97.850 Y85.357 E0.03936
G1 X97.850 Y76.657 E0.27278
G1 X97.096 Y76.657 E0.02365
G1 X97.096 Y86.257 E0.30098
;WIPE_START
G1 F8640.000
G1 X97.096 Y82.965 E-0.76000
;WIPE_END
G1 E-0.04000 F2100.000
G1 Z0.600 F10800.000
G1 X100.867 Y125.591
G1 Z0.200
G1 E0.80000 F2100.000
G1 F1200.000
G1 X100.867 Y125.226 E0.01145
G1 X101.046 Y124.796 E0.01461
G1 X101.199 Y124.532 E0.00956
G1 X101.378 Y124.285 E0.00956
G1 X101.621 Y124.018 E0.01132
G1 X101.621 Y125.422 E0.04401
G1 X102.271 Y125.422 E0.02039
G1 X102.271 Y127.729 E0.07234
G1 X102.375 Y127.729 E0.00326
G1 X102.375 Y123.472 E0.13346
G1 X102.581 Y123.372 E0.00718
G1 X102.868 Y123.267 E0.00956
G1 X103.129 Y123.200 E0.00847
G1 X103.129 Y127.729 E0.14201
G1 X103.884 Y127.729 E0.02365
G1 X103.884 Y123.132 E0.14412
G1 X104.376 Y123.184 E0.01552
G1 X104.638 Y123.248 E0.00846
G1 X104.638 Y129.180 E0.18597
G1 X104.927 Y129.081 E0.00958
G1 X105.204 Y128.954 E0.00956
G1 X105.392 Y128.845 E0.00680
G1 X105.392 Y123.582 E0.16504
G1 X105.743 Y123.826 E0.01341
G1 X105.969 Y124.031 E0.00957
G1 X106.146 Y124.227 E0.00827
G1 X106.146 Y128.452 E0.13247
;WIPE_START
G1 F8640.000
G1 X106.146 Y125.160 E-0.76000
;WIPE_END
G1 E-0.04000 F2100.000
G1 Z0.600 F10800.000
G1 X104.210 Y129.441
G1 Z0.200
G1 E0.80000 F2100.000
;TYPE:Support material interface
;WIDTH:0.35
G1 F1200.000
G1 X104.210 Y128.071 E0.03499
G1 X103.703 Y128.071 E0.01295
G1 X103.703 Y129.332 E0.03220
G1 X103.425 Y129.313 E0.00710
G1 X103.196 Y129.275 E0.00595
G1 X103.196 Y128.071 E0.03075
G1 X102.689 Y128.071 E0.01295
G1 X102.689 Y129.134 E0.02715
G1 X102.212 Y128.914 E0.01340
G1 X102.181 Y128.958 E0.00138
G1 X102.181 Y128.071 E0.02267
G1 X101.929 Y128.071 E0.00644
G1 X101.929 Y125.764 E0.05891
G1 X101.674 Y125.764 E0.00651
G1 X101.674 Y130.378 E0.11782
G1 X102.181 Y130.378 E0.01295
G1 X102.181 Y129.770 E0.01553
G1 X102.689 Y130.226 E0.01742
G1 X102.689 Y130.516 E0.00741
G1 X102.375 Y129.714 F10800.000
;TYPE:Support material
;WIDTH:0.42
G1 F1200.000
G1 X102.375 Y129.187 E0.01651
;WIPE_START
G1 F8640.000
G1 X102.375 Y129.714 E-0.12157
;WIPE_END
G1 E-0.67843 F2100.000
G1 Z0.600 F10800.000
G1 X101.167 Y130.516
G1 Z0.200
G1 E0.80000 F2100.000
;TYPE:Support material interface
;WIDTH:0.35
G1 F1200.000
G1 X101.167 Y125.764 E0.12135
G1 X100.702 Y125.764 E0.01188
G1 X100.666 Y126.267 E0.01288
G1 X100.687 Y126.575 E0.00788
G1 X100.738 Y126.880 E0.00789
G1 X100.858 Y127.293 E0.01100
G1 X101.086 Y127.788 E0.01390
G1 X100.660 Y128.083 E0.01322
G1 X100.660 Y130.378 E0.05860
G1 X100.153 Y130.378 E0.01295
G1 X100.153 Y127.735 E0.06749
G1 X99.646 Y127.164 E0.01950
G1 X99.646 Y130.516 E0.08560
G1 X97.096 Y133.512 F10800.000
;TYPE:Support material
;WIDTH:0.42
G1 F1200.000
G1 X97.096 Y123.913 E0.30098
G1 X97.337 Y123.913 E0.00755
G1 X97.850 Y124.643 E0.02798
G1 X97.850 Y133.343 E0.27278
G1 X98.604 Y133.343 E0.02365
G1 X98.604 Y125.646 E0.24132
G1 X99.280 Y126.484 E0.03373
G1 X99.280 Y130.720 E0.13283
G1 X99.359 Y130.720 E0.00246
G1 X99.359 Y133.343 E0.08224
G1 X100.113 Y133.343 E0.02365
G1 X100.113 Y130.720 E0.08224
G1 X100.867 Y130.720 E0.02365
G1 X100.867 Y133.343 E0.08224
G1 X101.621 Y133.343 E0.02365
G1 X101.621 Y130.720 E0.08224
G1 X102.375 Y130.720 E0.02365
G1 X102.375 Y133.343 E0.08224
G1 X103.129 Y133.343 E0.02365
G1 X103.129 Y130.720 E0.08224
G1 X103.516 Y130.720 E0.01213
G1 X103.884 Y131.020 E0.01487
G1 X103.884 Y133.343 E0.07282
G1 X104.638 Y133.343 E0.02365
G1 X104.638 Y131.615 E0.05418
G1 X105.392 Y132.175 E0.02946
G1 X105.392 Y133.512 E0.04193
;WIPE_START
G1 F8640.000
G1 X105.392 Y132.175 E-0.30882
G1 X104.638 Y131.615 E-0.21695
G1 X104.638 Y132.629 E-0.23423
;WIPE_END
G1 E-0.04000 F2100.000
G1 Z0.600 F10800.000
G1 X144.608 Y133.512
G1 Z0.200
G1 E0.80000 F2100.000
G1 F1200.000
G1 X144.608 Y132.175 E0.04194
G1 X145.362 Y131.615 E0.02946
G1 X145.362 Y133.343 E0.05418
G1 X146.116 Y133.343 E0.02365
G1 X146.116 Y131.020 E0.07282
G1 X146.484 Y130.720 E0.01487
G1 X146.871 Y130.720 E0.01213
G1 X146.871 Y133.343 E0.08224
G1 X147.625 Y133.343 E0.02365
G1 X147.625 Y130.720 E0.08224
G1 X148.379 Y130.720 E0.02365
G1 X148.379 Y133.343 E0.08224
G1 X149.133 Y133.343 E0.02365
G1 X149.133 Y130.720 E0.08224
G1 X149.887 Y130.720 E0.02365
G1 X149.887 Y133.343 E0.08224
M73 Q0 S111
G1 X150.641 Y133.343 E0.02365
G1 X150.641 Y130.720 E0.08224
G1 X150.720 Y130.720 E0.00246
G1 X150.720 Y126.484 E0.13283
G1 X151.396 Y125.646 E0.03374
G1 X151.396 Y133.343 E0.24132
G1 X152.150 Y133.343 E0.02365
G1 X152.150 Y124.643 E0.27278
G1 X152.663 Y123.913 E0.02797
G1 X152.904 Y123.913 E0.00755
G1 X152.904 Y133.512 E0.30098
;WIPE_START
G1 F8640.000
G1 X152.904 Y130.221 E-0.76000
;WIPE_END
G1 E-0.04000 F2100.000
G1 Z0.600 F10800.000
G1 X150.354 Y130.516
G1 Z0.200
G1 E0.80000 F2100.000
;TYPE:Support material interface
;WIDTH:0.35
G1 F1200.000
G1 X150.354 Y127.164 E0.08560
G1 X149.847 Y127.735 E0.01950
G1 X149.847 Y130.378 E0.06749
G1 X149.340 Y130.378 E0.01295
G1 X149.340 Y128.083 E0.05860
G1 X148.914 Y127.788 E0.01322
G1 X149.142 Y127.293 E0.01390
G1 X149.262 Y126.880 E0.01100
G1 X149.313 Y126.575 E0.00789
G1 X149.334 Y126.267 E0.00788
G1 X149.298 Y125.764 E0.01288
G1 X148.833 Y125.764 E0.01188
G1 X148.833 Y130.378 E0.11782
G1 X148.326 Y130.378 E0.01295
G1 X148.326 Y125.764 E0.11782
G1 X148.071 Y125.764 E0.00651
G1 X148.071 Y128.071 E0.05891
G1 X147.819 Y128.071 E0.00644
G1 X147.819 Y128.958 E0.02267
G1 X147.788 Y128.914 E0.00138
G1 X147.311 Y129.134 E0.01340
G1 X147.311 Y128.071 E0.02715
G1 X146.804 Y128.071 E0.01295
G1 X146.804 Y129.275 E0.03075
G1 X146.575 Y129.313 E0.00595
G1 X146.297 Y129.332 E0.00710
G1 X146.297 Y128.071 E0.03220
G1 X145.790 Y128.071 E0.01295
G1 X145.790 Y129.441 E0.03499
G1 X147.625 Y129.187 F10800.000
;TYPE:Support material
;WIDTH:0.42
G1 F1200.000
G1 X147.625 Y129.714 E0.01651
G1 X147.819 Y130.516 F10800.000
;TYPE:Support material interface
;WIDTH:0.35
G1 F1200.000
G1 X147.819 Y129.770 E0.01906
G1 X147.311 Y130.226 E0.01742
G1 X147.311 Y130.516 E0.00741
;WIPE_START
G1 F8640.000
G1 X147.311 Y130.226 E-0.06697
G1 X147.819 Y129.770 E-0.15751
G1 X147.819 Y130.516 E-0.17233
;WIPE_END
G1 E-0.40319 F2100.000
G1 Z0.600 F10800.000
G1 X143.854 Y128.452
G1 Z0.200
G1 E0.80000 F2100.000
;TYPE:Support material
;WIDTH:0.42
G1 F1200.000
G1 X143.854 Y124.227 E0.13247
G1 X144.031 Y124.031 E0.00827
G1 X144.257 Y123.826 E0.00957
G1 X144.608 Y123.582 E0.01341
G1 X144.608 Y128.845 E0.16504
G1 X144.796 Y128.954 E0.00680
G1 X145.073 Y129.081 E0.00956
G1 X145.362 Y129.180 E0.00958
G1 X145.362 Y123.248 E0.18597
G1 X145.624 Y123.184 E0.00846
G1 X146.116 Y123.132 E0.01552
G1 X146.116 Y127.729 E0.14412
G1 X146.871 Y127.729 E0.02365
G1 X146.871 Y123.200 E0.14201
G1 X147.132 Y123.267 E0.00847
G1 X147.419 Y123.372 E0.00956
G1 X147.625 Y123.472 E0.00718
G1 X147.625 Y127.729 E0.13346
G1 X147.729 Y127.729 E0.00326
G1 X147.729 Y125.422 E0.07234
G1 X148.379 Y125.422 E0.02039
G1 X148.379 Y124.018 E0.04401
G1 X148.622 Y124.285 E0.01132
G1 X148.801 Y124.532 E0.00956
G1 X148.954 Y124.796 E0.00956
G1 X149.133 Y125.226 E0.01461
G1 X149.133 Y125.591 E0.01145
;WIPE_START
G1 F8640.000
G1 X149.133 Y125.226 E-0.08434
G1 X148.954 Y124.796 E-0.10760
G1 X148.801 Y124.532 E-0.07044
G1 X148.622 Y124.285 E-0.07044
G1 X148.379 Y124.018 E-0.08338
G1 X148.379 Y125.422 E-0.32410
G1 X148.294 Y125.422 E-0.01970
;WIPE_END
G1 E-0.04000 F2100.000
G1 Z0.600 F10800.000
G1 X152.904 Y86.257
G1 Z0.200
G1 E0.80000 F2100.000
G1 F1200.000
G1 X152.904 Y76.657 E0.30098
G1 X152.150 Y76.657 E0.02365
G1 X152.150 Y85.357 E0.27278
G1 X151.396 Y84.354 E0.03936
G1 X151.396 Y76.657 E0.24132
G1 X150.641 Y76.657 E0.02365
G1 X150.641 Y79.280 E0.08224
G1 X149.887 Y79.280 E0.02365
G1 X149.887 Y76.657 E0.08224
G1 X149.133 Y76.657 E0.02365
G1 X149.133 Y79.280 E0.08224
G1 X148.379 Y79.280 E0.02365
G1 X148.379 Y76.657 E0.08224
G1 X147.625 Y76.657 E0.02365
G1 X147.625 Y79.280 E0.08224
G1 X146.871 Y79.280 E0.02365
G1 X146.871 Y76.657 E0.08224
G1 X146.116 Y76.657 E0.02365
G1 X146.116 Y78.980 E0.07282
G1 X145.362 Y78.385 E0.03011
G1 X145.362 Y76.657 E0.05419
G1 X144.608 Y76.657 E0.02365
G1 X144.608 Y78.035 E0.04319
;WIPE_START
G1 F8640.000
G1 X144.608 Y76.657 E-0.31809
G1 X145.362 Y76.657 E-0.17414
G1 X145.362 Y77.817 E-0.26777
;WIPE_END
G1 E-0.04000 F2100.000
G1 Z0.600 F10800.000
G1 X145.790 Y80.559
G1 Z0.200
G1 E0.80000 F2100.000
;TYPE:Support material interface
;WIDTH:0.35
G1 F1200.000
G1 X145.790 Y81.929 E0.03499
G1 X146.297 Y81.929 E0.01295
G1 X146.297 Y80.668 E0.03220
G1 X146.575 Y80.687 E0.00710
G1 X146.804 Y80.725 E0.00595
G1 X146.804 Y81.929 E0.03075
G1 X147.311 Y81.929 E0.01295
G1 X147.311 Y80.866 E0.02715
G1 X147.788 Y81.086 E0.01340
G1 X147.819 Y81.042 E0.00138
G1 X147.819 Y82.067 E0.02619
G1 X147.625 Y80.813 F10800.000
;TYPE:Support material
;WIDTH:0.42
G1 F1200.000
G1 X147.625 Y80.286 E0.01651
G1 X147.311 Y79.484 F10800.000
;TYPE:Support material interface
;WIDTH:0.35
G1 F1200.000
G1 X147.311 Y79.774 E0.00741
G1 X147.819 Y80.230 E0.01742
G1 X147.819 Y79.622 E0.01553
G1 X148.326 Y79.622 E0.01295
G1 X148.326 Y84.236 E0.11782
G1 X148.833 Y84.236 E0.01295
G1 X148.833 Y79.622 E0.11782
G1 X149.340 Y79.622 E0.01295
G1 X149.340 Y81.917 E0.05860
G1 X149.452 Y81.840 E0.00347
G1 X149.847 Y82.265 E0.01483
G1 X149.847 Y79.622 E0.06749
G1 X150.354 Y79.622 E0.01295
G1 X150.354 Y83.047 E0.08746
;WIPE_START
G1 F8640.000
G1 X150.354 Y79.756 E-0.76000
;WIPE_END
G1 E-0.04000 F2100.000
G1 Z0.600 F10800.000
G1 X149.133 Y85.221
G1 Z0.200
G1 E0.80000 F2100.000
;TYPE:Support material
;WIDTH:0.42
G1 F1200.000
G1 X149.133 Y84.578 E0.02016
G1 X148.379 Y84.578 E0.02365
G1 X148.379 Y85.982 E0.04401
G1 X148.196 Y86.151 E0.00780
G1 X147.953 Y86.335 E0.00956
G1 X147.625 Y86.528 E0.01194
G1 X147.625 Y82.271 E0.13346
G1 X146.871 Y82.271 E0.02365
G1 X146.871 Y86.800 E0.14201
G1 X146.535 Y86.856 E0.01065
G1 X146.116 Y86.868 E0.01314
G1 X146.116 Y82.271 E0.14412
G1 X145.422 Y82.271 E0.02179
G1 X145.422 Y80.807 E0.04593
G1 X145.362 Y80.820 E0.00191
G1 X145.362 Y86.752 E0.18597
G1 X145.040 Y86.641 E0.01067
G1 X144.608 Y86.418 E0.01525
G1 X144.608 Y81.155 E0.16504
G1 X144.285 Y81.378 E0.01232
G1 X144.056 Y81.580 E0.00957
G1 X143.854 Y81.798 E0.00933
G1 X143.854 Y86.026 E0.13257
;WIPE_START
G1 F8640.000
G1 X143.854 Y82.735 E-0.76000
;WIPE_END
G1 E-0.04000 F2100.000
G1 Z0.600 F10800.000
G1 X128.322 Y101.558
G1 Z0.200
G1 E0.80000 F2100.000
